; LightBurn 1.3.01
; GRBL device profile, absolute coords
; Bounds: X165.65 Y159.55 to X235.39 Y240.45
G00 G17 G40 G21 G54
G90
M4
; Scan @ 1800 mm/min, 10% power
M8
G0 X209.585Y159.65
; Layer 
G91
G1 X0.249F1800S100
G1 X3.792S0
G1 X0.249S100
G1 X0.067Y0.1S0
G1 X-0.261S100
G1 X-3.902S0
G1 X-0.261S100
G1 X-0.068Y0.1S0
G1 X0.275S100
G1 X4.01S0
G1 X0.274S100
G1 X0.063Y0.1S0
G1 X-0.282S100
G1 X-4.12S0
G1 X-0.283S100
G1 X-0.048Y0.1S0
G1 X0.286S100
G1 X4.211S0
G1 X0.285S100
G1 X0.048Y0.1S0
G1 X-0.294S100
G1 X-4.289S0
G1 X-0.296S100
G1 X-0.048Y0.1S0
G1 X0.305S100
G1 X1.258S0
G1 X0.273S100
G1 X1.401S0
G1 X0.105S100
G1 X1.33S0
G1 X0.304S100
G1 X0.048Y0.1S0
G1 X-0.314S100
G1 X-1.093S0
G1 X-0.65S100
G1 X-1.079S0
G1 X-0.273S100
G1 X-1.349S0
G1 X-0.315S100
G1 X-2.135S0
G1 X-0.33S100
G1 X-0.948S0
G1 X-0.657S100
G1 X-1.328S0
G1 X-0.346S100
G1 X-0.775S0
G1 X-0.347S100
G1 X-1.372S0
G1 X-0.611S100
G1 X-2.59S0
G1 X-0.355S100
G1 Y0.1S0
G1 X0.355S100
G1 X2.377S0
G1 X1.039S100
G1 X1.126S0
G1 X0.405S100
G1 X0.722S0
G1 X0.404S100
G1 X1.078S0
G1 X1.077S100
G1 X0.746S0
G1 X0.33S100
G1 X2.098S0
G1 X0.315S100
G1 X1.438S0
G1 X0.273S100
G1 X0.928S0
G1 X0.851S100
G1 X1.028S0
G1 X0.314S100
G1 X0.036Y0.1S0
G1 X-0.327S100
G1 X-0.984S0
G1 X-0.316S100
G1 X-0.346S0
G1 X-0.319S100
G1 X-0.814S0
G1 X-0.272S100
G1 X-1.513S0
G1 X-0.327S100
G1 X-2.063S0
G1 X-0.33S100
G1 X-0.628S0
G1 X-1.313S100
G1 X-0.929S0
G1 X-0.462S100
G1 X-0.669S0
G1 X-0.462S100
G1 X-0.963S0
G1 X-1.289S100
G1 X-2.259S0
G1 X-0.355S100
G1 Y0.1S0
G1 X0.355S100
G1 X2.178S0
G1 X0.446S100
G1 X0.559S0
G1 X0.445S100
G1 X0.853S0
G1 X0.518S100
G1 X0.617S0
G1 X0.519S100
G1 X0.817S0
G1 X0.455S100
G1 X0.567S0
G1 X0.451S100
G1 X0.549S0
G1 X0.33S100
G1 X2.033S0
G1 X0.334S100
G1 X1.588S0
G1 X0.272S100
G1 X0.721S0
G1 X0.297S100
G1 X0.471S0
G1 X0.297S100
G1 X0.965S0
G1 X0.332S100
G1 X0.025Y0.1S0
G1 X-0.334S100
G1 X-0.965S0
G1 X-0.286S100
G1 X-0.539S0
G1 X-0.284S100
G1 X-0.648S0
G1 X-0.272S100
G1 X-1.664S0
G1 X-0.334S100
G1 X-2.009S0
G1 X-0.33S100
G1 X-0.493S0
G1 X-0.397S100
G1 X-0.801S0
G1 X-0.394S100
G1 X-0.723S0
G1 X-0.577S100
G1 X-0.563S0
G1 X-0.281S100
G1 X-0.295
G1 X-0.75S0
G1 X-0.395S100
G1 X-0.803S0
G1 X-0.387S100
G1 X-2.115S0
G1 X-0.355S100
G1 Y0.1S0
G1 X0.355S100
G1 X2.07S0
G1 X0.361S100
G1 X0.945S0
G1 X0.358S100
G1 X0.686S0
G1 X0.297S100
G1 X0.053S0
G1 X0.282S100
G1 X0.51S0
G1 X0.304S100
G1 X0.034S0
G1 X0.298S100
G1 X0.646S0
G1 X0.367S100
G1 X0.94S0
G1 X0.372S100
G1 X0.451S0
G1 X0.33S100
G1 X1.986S0
G1 X0.334S100
G1 X1.739S0
G1 X0.272S100
G1 X0.582S0
G1 X0.289S100
G1 X0.556S0
G1 X0.291S100
G1 X0.975S0
G1 X0.334S100
G1 X0.015Y0.1S0
G1 X-0.337S100
G1 X-0.981S0
G1 X-0.288S100
G1 X-0.573S0
G1 X-0.287S100
G1 X-0.525S0
G1 X-0.271S100
G1 X-1.802S0
G1 X-0.338S100
G1 X-1.971S0
G1 X-0.33S100
G1 X-0.603S0
G1 X-0.171S100
G1 X-1.037S0
G1 X-0.349S100
G1 X-0.585S0
G1 X-0.299S100
G1 X-0.09S0
G1 X-0.304S100
G1 X-0.458S0
G1 X-0.283S100
G1 X-0.106S0
G1 X-0.3S100
G1 X-0.622S0
G1 X-0.349S100
G1 X-1.03S0
G1 X-0.348S100
G1 X-2.04S0
G1 X-0.355S100
G1 Y0.1S0
G1 X0.355S100
G1 X2.017S0
G1 X0.343S100
G1 X1.087S0
G1 X0.343S100
G1 X0.568S0
G1 X0.304S100
G1 X0.159S0
G1 X0.284S100
G1 X0.404S0
G1 X0.305S100
G1 X0.145S0
G1 X0.301S100
G1 X0.53S0
G1 X0.346S100
G1 X1.838S0
G1 X0.33S100
G1 X1.956S0
G1 X0.345S100
G1 X1.862S0
G1 X0.271S100
G1 X0.477S0
G1 X0.291S100
G1 X0.558S0
G1 X0.29S100
G1 X0.993S0
G1 X0.345S100
G1 X0.007Y0.1S0
G1 X-0.344S100
G1 X-1.013S0
G1 X-0.287S100
G1 X-0.54S0
G1 X-0.288S100
G1 X-0.437S0
G1 X-0.271S100
G1 X-1.922S0
G1 X-0.343S100
G1 X-1.95S0
G1 X-0.33S100
G1 X-1.855S0
G1 X-0.34S100
G1 X-0.488S0
G1 X-0.302S100
G1 X-0.201S0
G1 X-0.305S100
G1 X-0.352S0
G1 X-0.285S100
G1 X-0.212S0
G1 X-0.306S100
G1 X-0.529S0
G1 X-0.333S100
G1 X-1.125S0
G1 X-0.337S100
G1 X-2.004S0
G1 X-0.355S100
G1 Y0.1S0
G1 X0.355S100
G1 X1.997S0
G1 X0.339S100
G1 X1.136S0
G1 X0.335S100
G1 X0.49S0
G1 X0.309S100
G1 X0.267S0
G1 X0.284S100
G1 X0.299S0
G1 X0.307S100
G1 X0.256S0
G1 X0.304S100
G1 X0.449S0
G1 X1.787S100
G1 X0.415S0
G1 X0.33S100
G1 X1.945S0
G1 X0.34S100
G1 X1.982S0
G1 X0.27S100
G1 X0.408S0
G1 X0.297S100
G1 X0.479S0
G1 X0.296S100
G1 X1.042S0
G1 X0.341S100
G1 Y0.1S0
G1 X-0.338S100
G1 X-1.086S0
G1 X-0.312S100
G1 X-0.367S0
G1 X-0.313S100
G1 X-0.395S0
G1 X-0.271S100
G1 X-2.036S0
G1 X-0.338S100
G1 X-1.944S0
G1 X-0.33S100
G1 X-0.415S0
G1 X-1.787S100
G1 X-0.418S0
G1 X-0.306S100
G1 X-0.311S0
G1 X-0.307S100
G1 X-0.246S0
G1 X-0.284S100
G1 X-0.321S0
G1 X-0.312S100
G1 X-0.453S0
G1 X-0.339S100
G1 X-1.141S0
G1 X-0.339S100
G1 X-1.995S0
G1 X-0.355S100
G1 Y0.1S0
G1 X1.307S100
G1 X1.051S0
G1 X0.336S100
G1 X1.13S0
G1 X0.338S100
G1 X0.429S0
G1 X0.315S100
G1 X0.376S0
G1 X0.283S100
G1 X0.193S0
G1 X0.308S100
G1 X0.367S0
G1 X0.307S100
G1 X0.394S0
G1 X1.773S100
G1 X0.422S0
G1 X0.336S100
G1 X1.947S0
G1 X0.335S100
G1 X2.082S0
G1 X0.271S100
G1 X0.401S0
G1 X0.872S100
G1 X1.142S0
G1 X0.336S100
G1 X-0.009Y0.1S0
G1 X-0.333S100
G1 X-1.234S0
G1 X-0.686S100
G1 X-0.437S0
G1 X-0.271S100
G1 X-2.128S0
G1 X-0.333S100
G1 X-1.948S0
G1 X-0.343S100
G1 X-0.429S0
G1 X-0.341S100
G1 X-1.07S0
G1 X-0.346S100
G1 X-0.372S0
G1 X-0.308S100
G1 X-0.423S0
G1 X-0.307S100
G1 X-0.142S0
G1 X-0.282S100
G1 X-0.43S0
G1 X-0.319S100
G1 X-0.405S0
G1 X-0.345S100
G1 X-1.101S0
G1 X-0.344S100
G1 X-0.708S0
G1 X-1.657S100
G1 Y0.1S0
G1 X1.803S100
G1 X0.585S0
G1 X0.342S100
G1 X1.058S0
G1 X0.344S100
G1 X0.398S0
G1 X0.321S100
G1 X0.486S0
G1 X0.281S100
G1 X0.092S0
G1 X0.304S100
G1 X0.478S0
G1 X0.311S100
G1 X0.364S0
G1 X0.34S100
G1 X1.032S0
G1 X0.338S100
G1 X0.452S0
G1 X0.363S100
G1 X1.936S0
G1 X0.33S100
G1 X2.175S0
G1 X0.27S100
G1 X0.593S0
G1 X0.264S100
G1 X1.444S0
G1 X0.33S100
G1 X-0.009Y0.1S0
G1 X-0.338S100
G1 X-2.232S0
G1 X-0.27S100
G1 X-0.479S0
G1 X-0.617S100
G1 X-1.114S0
G1 X-0.337S100
G1 X-1.922S0
G1 X-0.387S100
G1 X-0.476S0
G1 X-0.345S100
G1 X-0.965S0
G1 X-0.35S100
G1 X-0.359S0
G1 X-0.312S100
G1 X-0.534S0
G1 X-0.3S100
G1 X-0.044S0
G1 X-0.28S100
G1 X-0.54S0
G1 X-0.325S100
G1 X-0.391S0
G1 X-0.361S100
G1 X-0.977S0
G1 X-0.356S100
G1 X-0.523S0
G1 X-1.891S100
G1 Y0.1S0
G1 X0.355S100
G1 X1.138S0
G1 X0.46S100
G1 X0.503S0
G1 X0.377S100
G1 X0.851S0
G1 X0.378S100
G1 X0.407S0
G1 X0.327S100
G1 X0.595S0
G1 X0.571S100
G1 X0.59S0
G1 X0.313S100
G1 X0.373S0
G1 X0.366S100
G1 X0.851S0
G1 X0.353S100
G1 X0.521S0
G1 X0.435S100
G1 X1.9S0
G1 X0.328S100
G1 X0.989S0
G1 X0.836S100
G1 X0.42S0
G1 X0.27S100
G1 X2.163S0
G1 X0.329S100
G1 X-0.026Y0.1S0
G1 X-0.321S100
G1 X-2.094S0
G1 X-0.269S100
G1 X-0.402S0
G1 X-0.323S100
G1 X-0.322S0
G1 X-0.327S100
G1 X-0.906S0
G1 X-0.32S100
G1 X-1.406S0
G1 X-0.077S100
G1 X-0.326S0
G1 X-0.551S100
G1 X-0.574S0
G1 X-0.392S100
G1 X-0.66S0
G1 X-0.409S100
G1 X-0.397S0
G1 X-0.316S100
G1 X-0.645S0
G1 X-0.518S100
G1 X-0.65S0
G1 X-0.33S100
G1 X-0.43S0
G1 X-0.422S100
G1 X-0.655S0
G1 X-0.424S100
G1 X-0.508S0
G1 X-0.398S100
G1 X-1.246S0
G1 X-0.355S100
G1 Y0.1S0
G1 X0.355S100
G1 X1.296S0
G1 X0.375S100
G1 X0.563S0
G1 X0.573S100
G1 X0.193S0
G1 X0.576S100
G1 X0.476S0
G1 X0.334S100
G1 X0.704S0
G1 X0.465S100
G1 X0.701S0
G1 X0.317S100
G1 X0.44S0
G1 X0.552S100
G1 X0.229S0
G1 X0.532S100
G1 X0.648S0
G1 X0.297S100
G1 X0.036S0
G1 X0.659S100
G1 X1.394S0
G1 X0.316S100
G1 X0.844S0
G1 X0.297S100
G1 X0.461S0
G1 X0.297S100
G1 X0.411S0
G1 X0.269S100
G1 X2.02S0
G1 X0.317S100
G1 X-0.026Y0.1S0
G1 X-0.319S100
G1 X-1.94S0
G1 X-0.269S100
G1 X-0.438S0
G1 X-0.285S100
G1 X-0.535S0
G1 X-0.283S100
G1 X-0.792S0
G1 X-0.319S100
G1 X-1.383S0
G1 X-0.632S100
G1 X-0.1S0
G1 X-0.297S100
G1 X-0.755S0
G1 X-1.097S100
G1 X-0.518S0
G1 X-0.318S100
G1 X-0.756S0
G1 X-0.413S100
G1 X-0.759S0
G1 X-0.336S100
G1 X-0.557S0
G1 X-1.125S100
G1 X-0.654S0
G1 X-0.365S100
G1 X-1.321S0
G1 X-0.355S100
G1 Y0.1S0
G1 X0.355S100
G1 X1.327S0
G1 X0.367S100
G1 X0.816S0
G1 X0.791S100
G1 X0.69S0
G1 X0.34S100
G1 X0.814S0
G1 X0.359S100
G1 X0.811S0
G1 X0.32S100
G1 X0.65S0
G1 X0.775S100
G1 X0.914S0
G1 X0.297S100
G1 X0.193S0
G1 X0.516S100
G1 X1.447S0
G1 X0.306S100
G1 X0.749S0
G1 X0.289S100
G1 X0.553S0
G1 X0.291S100
G1 X0.475S0
G1 X0.269S100
G1 X1.86S0
G1 X0.307S100
G1 X-0.041Y0.1S0
G1 X-0.303S100
G1 X-1.772S0
G1 X-0.268S100
G1 X-0.521S0
G1 X-0.289S100
G1 X-0.571S0
G1 X-0.285S100
G1 X-0.707S0
G1 X-0.302S100
G1 X-9.783S0
G1 X-0.371S100
G1 X-1.313S0
G1 X-0.355S100
G1 Y0.1S0
G1 X0.355S100
G1 X1.281S0
G1 X0.39S100
G1 X9.843S0
G1 X0.294S100
G1 X0.67S0
G1 X0.292S100
G1 X0.558S0
G1 X0.288S100
G1 X0.577S0
G1 X0.269S100
G1 X1.682S0
G1 X0.294S100
G1 X-0.05Y0.1S0
G1 X-0.285S100
G1 X-1.589S0
G1 X-0.269S100
G1 X-0.638S0
G1 X-0.289S100
G1 X-0.54S0
G1 X-0.289S100
G1 X-0.641S0
G1 X-0.284S100
G1 X-9.928S0
G1 X-0.414S100
G1 X-1.222S0
G1 X-0.355S100
G1 Y0.1S0
G1 X0.355S100
G1 X1.099S0
G1 X0.493S100
G1 X10.026S0
G1 X0.279S100
G1 X0.613S0
G1 X0.296S100
G1 X0.485S0
G1 X0.294S100
G1 X0.712S0
G1 X0.268S100
G1 X1.49S0
G1 X0.279S100
G1 X-0.06Y0.1S0
G1 X-0.271S100
G1 X-1.386S0
G1 X-0.268S100
G1 X-0.802S0
G1 X-0.305S100
G1 X-0.388S0
G1 X-0.305S100
G1 X-0.6S0
G1 X-0.271S100
G1 X-10.15S0
G1 X-1.883S100
G1 Y0.1S0
G1 X1.782S100
G1 X10.312S0
G1 X0.265S100
G1 X0.601S0
G1 X0.883S100
G1 X0.913S0
G1 X0.268S100
G1 X1.279S0
G1 X0.265S100
G1 X-0.07Y0.1S0
G1 X-0.252S100
G1 X-1.17S0
G1 X-0.268S100
G1 X-1.06S0
G1 X-0.704S100
G1 X-0.628S0
G1 X-0.252S100
G1 X-10.552S0
G1 X-1.612S100
G1 X12.234Y0.1S0
G1 X0.239S100
G1 X0.757S0
G1 X0.325S100
G1 X1.305S0
G1 X0.267S100
G1 X1.062S0
G1 X0.239S100
G1 X18.42Y3.2S0
G1 X-0.334S100
G1 X-0.074Y0.1S0
G1 X0.34S100
G1 X-0.077Y0.1S0
G1 X-0.365S100
G1 X-0.113Y0.1S0
G1 X0.39S100
G1 X-0.11Y0.1S0
G1 X-0.417S100
G1 X-0.179Y0.1S0
G1 X2.696S100
G1 Y0.1S0
G1 X-2.696S100
G1 X-49.563Y0.7S0
G1 X0.259S100
G1 X5.79S0
G1 X0.051S100
G1 X6.045S0
G1 X0.471S100
G1 X6.439S0
G1 X0.062S100
G1 X5.479S0
G1 X0.782S100
G1 X12.998S0
G1 X0.268S100
G1 X5.185S0
G1 X0.283S100
G1 X6.631S0
G1 X0.424S100
G1 X0.65Y0.1S0
G1 X-1.746S100
G1 X-4.628S0
G1 X-0.314S100
G1 X-0.634S0
G1 X-1.059S100
G1 X-4.479S0
G1 X-0.927S100
G1 X-0.563S0
G1 X-0.439S100
G1 X-6.602S0
G1 X-0.317S100
G1 X-4.264S0
G1 X-1.763S100
G1 X-4.621S0
G1 X-0.418S100
G1 X-0.542S0
G1 X-0.466S100
G1 X-5.419S0
G1 X-0.66S100
G1 X-5.505S0
G1 X-0.42S100
G1 X-1.252S0
G1 X-0.33S100
G1 X-4.19S0
G1 X-0.491S100
G1 X-1.415S0
G1 X-0.418S100
G1 X-0.168Y0.1S0
G1 X0.599S100
G1 X1.24S0
G1 X0.653S100
G1 X4.019S0
G1 X0.524S100
G1 X1.211S0
G1 X0.59S100
G1 X5.163S0
G1 X0.459S100
G1 X0.089S0
G1 X0.302S100
G1 X4.712S0
G1 X1.19S100
G1 X0.514S0
G1 X0.577S100
G1 X4.257S0
G1 X2.166S100
G1 X4.077S0
G1 X0.317S100
G1 X6.38S0
G1 X0.856S100
G1 X0.245S0
G1 X1.192S100
G1 X4.182S0
G1 X1.367S100
G1 X0.469S0
G1 X0.5S100
G1 X4.229S0
G1 X2.192S100
G1 X0.125Y0.1S0
G1 X-0.544S100
G1 X-1.353S0
G1 X-0.56S100
G1 X-3.993S0
G1 X-0.457S100
G1 X-0.51S0
G1 X-0.48S100
G1 X-0.597S0
G1 X-0.488S100
G1 X-3.989S0
G1 X-0.422S100
G1 X-0.554S0
G1 X-0.372S100
G1 X-0.09S0
G1 X-1.065S100
G1 X-3.93S0
G1 X-0.141S100
G1 X-2.192S0
G1 X-0.317S100
G1 X-3.959S0
G1 X-0.511S100
G1 X-0.497S0
G1 X-0.384S100
G1 X-0.512S0
G1 X-0.511S100
G1 X-4.036S0
G1 X-0.45S100
G1 X-0.771S0
G1 X-1.367S100
G1 X-4.495S0
G1 X-0.302S100
G1 X-0.281S0
G1 X-0.456S100
G1 X-4.88S0
G1 X-0.446S100
G1 X-1.599S0
G1 X-0.478S100
G1 X-3.915S0
G1 X-0.789S100
G1 X-1.344S0
G1 X-0.453S100
G1 X-0.058Y0.1S0
G1 X0.331S100
G1 X1.408S0
G1 X0.422S100
G1 X0.166S0
G1 X0.317S100
G1 X3.852S0
G1 X0.335S100
G1 X1.976S0
G1 X0.335S100
G1 X4.631S0
G1 X0.453S100
G1 X0.473S0
G1 X0.302S100
G1 X4.495S0
G1 X0.504S100
G1 X0.468S0
G1 X0.278S100
G1 X1.057S0
G1 X0.339S100
G1 X3.897S0
G1 X0.376S100
G1 X0.617S0
G1 X0.301S100
G1 X0.922S0
G1 X0.359S100
G1 X3.88S0
G1 X0.317S100
G1 X1.499S0
G1 X0.834S100
G1 X3.862S0
G1 X0.365S100
G1 X0.54S0
G1 X0.527S100
G1 X0.866S0
G1 X0.332S100
G1 X3.865S0
G1 X0.36S100
G1 X0.965S0
G1 X0.365S100
G1 X0.641S0
G1 X0.32S100
G1 X3.863S0
G1 X0.358S100
G1 X1.886S0
G1 X0.366S100
G1 X0.043Y0.1S0
G1 X-0.3S100
G1 X-2.103S0
G1 X-0.293S100
G1 X-3.792S0
G1 X-0.282S100
G1 X-0.675S0
G1 X-0.317S100
G1 X-1.139S0
G1 X-0.304S100
G1 X-3.792S0
G1 X-0.294S100
G1 X-1.012S0
G1 X-0.351S100
G1 X-0.746S0
G1 X-0.299S100
G1 X-3.825S0
G1 X-1.23S100
G1 X-1.103S0
G1 X-0.317S100
G1 X-3.837S0
G1 X-0.302S100
G1 X-1.113S0
G1 X-0.279S100
G1 X-0.669S0
G1 X-0.304S100
G1 X-3.816S0
G1 X-0.288S100
G1 X-1.202S0
G1 X-0.275S100
G1 X-0.598S0
G1 X-0.315S100
G1 X-4.495S0
G1 X-0.302S100
G1 X-0.665S0
G1 X-0.451S100
G1 X-4.407S0
G1 X-0.288S100
G1 X-1.021S0
G1 X-0.197S100
G1 X-0.921S0
G1 X-0.286S100
G1 X-3.819S0
G1 X-0.317S100
G1 X-0.294S0
G1 X-0.41S100
G1 X-1.368S0
G1 X-0.287S100
G1 X-0.014Y0.1S0
G1 X0.273S100
G1 X1.284S0
G1 X0.407S100
G1 X0.409S0
G1 X0.317S100
G1 X3.807S0
G1 X0.275S100
G1 X0.852S0
G1 X0.265S100
G1 X1.068S0
G1 X0.277S100
G1 X4.206S0
G1 X0.448S100
G1 X0.857S0
G1 X0.302S100
G1 X4.495S0
G1 X0.315S100
G1 X0.564S0
G1 X0.286S100
G1 X1.249S0
G1 X0.276S100
G1 X3.776S0
G1 X0.275S100
G1 X0.684S0
G1 X0.281S100
G1 X1.202S0
G1 X0.275S100
G1 X3.815S0
G1 X0.317S100
G1 X0.815S0
G1 X1.004S100
G1 X4.323S0
G1 X0.278S100
G1 X0.819S0
G1 X0.286S100
G1 X1.073S0
G1 X0.275S100
G1 X3.767S0
G1 X0.278S100
G1 X1.208S0
G1 X0.295S100
G1 X0.686S0
G1 X0.271S100
G1 X3.764S0
G1 X0.275S100
G1 X2.182S0
G1 X0.273S100
G1 Y0.1S0
G1 X-0.273S100
G1 X-2.18S0
G1 X-0.274S100
G1 X-3.776S0
G1 X-0.278S100
G1 X-0.687S0
G1 X-0.279S100
G1 X-1.209S0
G1 X-0.265S100
G1 X-3.777S0
G1 X-0.272S100
G1 X-1.076S0
G1 X-0.286S100
G1 X-0.82S0
G1 X-0.277S100
G1 X-4.781S0
G1 X-0.795S100
G1 X-0.567S0
G1 X-0.317S100
G1 X-3.808S0
G1 X-0.271S100
G1 X-1.217S0
G1 X-0.293S100
G1 X-0.682S0
G1 X-0.274S100
G1 X-3.767S0
G1 X-0.272S100
G1 X-1.248S0
G1 X-0.298S100
G1 X-0.553S0
G1 X-0.315S100
G1 X-4.495S0
G1 X-0.302S100
G1 X-1.049S0
G1 X-0.445S100
G1 X-4.021S0
G1 X-0.273S100
G1 X-1.07S0
G1 X-0.282S100
G1 X-0.824S0
G1 X-0.275S100
G1 X-3.816S0
G1 X-0.317S100
G1 X-0.524S0
G1 X-0.412S100
G1 X-1.16S0
G1 X-0.279S100
G1 X0.01Y0.1S0
G1 X0.291S100
G1 X1.009S0
G1 X0.424S100
G1 X0.641S0
G1 X0.317S100
G1 X3.837S0
G1 X0.301S100
G1 X0.715S0
G1 X0.372S100
G1 X1.006S0
G1 X0.292S100
G1 X3.848S0
G1 X2.629S100
G1 X3.852S0
G1 X0.315S100
G1 X0.565S0
G1 X0.317S100
G1 X1.182S0
G1 X0.293S100
G1 X3.79S0
G1 X0.291S100
G1 X0.664S0
G1 X0.312S100
G1 X1.161S0
G1 X0.283S100
G1 X3.825S0
G1 X0.317S100
G1 X0.344S0
G1 X0.678S100
G1 X5.137S0
G1 X0.298S100
G1 X0.75S0
G1 X0.348S100
G1 X1.021S0
G1 X0.286S100
G1 X3.808S0
G1 X0.281S100
G1 X1.142S0
G1 X0.268S100
G1 X0.677S0
G1 X0.302S100
G1 X3.819S0
G1 X0.303S100
G1 X2.093S0
G1 X0.299S100
G1 X-0.043Y0.1S0
G1 X-0.369S100
G1 X-1.867S0
G1 X-0.367S100
G1 X-3.922S0
G1 X-0.366S100
G1 X-0.629S0
G1 X-0.284S100
G1 X-0.964S0
G1 X-0.317S100
G1 X-3.899S0
G1 X-0.32S100
G1 X-0.879S0
G1 X-0.521S100
G1 X-0.546S0
G1 X-0.364S100
G1 X-5.449S0
G1 X-0.584S100
G1 X-0.164S0
G1 X-0.317S100
G1 X-3.861S0
G1 X-0.327S100
G1 X-1.007S0
G1 X-0.354S100
G1 X-0.618S0
G1 X-0.34S100
G1 X-3.862S0
G1 X-0.337S100
G1 X-1.021S0
G1 X-0.359S100
G1 X-0.597S0
G1 X-0.315S100
G1 X-3.852S0
G1 X-2.685S100
G1 X-3.828S0
G1 X-0.341S100
G1 X-0.848S0
G1 X-0.551S100
G1 X-0.487S0
G1 X-0.374S100
G1 X-3.886S0
G1 X-0.317S100
G1 X-0.759S0
G1 X-0.455S100
G1 X-0.781S0
G1 X-0.337S100
G1 X0.057Y0.1S0
G1 X0.439S100
G1 X0.4S0
G1 X0.547S100
G1 X0.889S0
G1 X0.317S100
G1 X3.965S0
G1 X1.028S100
G1 X0.087S0
G1 X0.384S100
G1 X0.507S0
G1 X0.45S100
G1 X3.894S0
G1 X2.685S100
G1 X3.852S0
G1 X0.315S100
G1 X0.654S0
G1 X0.471S100
G1 X0.67S0
G1 X0.451S100
G1 X3.985S0
G1 X0.48S100
G1 X0.483S0
G1 X0.471S100
G1 X0.644S0
G1 X0.456S100
G1 X3.918S0
G1 X0.832S100
G1 X5.752S0
G1 X1.066S100
G1 X0.085S0
G1 X0.368S100
G1 X0.565S0
G1 X0.418S100
G1 X4.028S0
G1 X0.447S100
G1 X0.567S0
G1 X0.37S100
G1 X0.497S0
G1 X0.518S100
G1 X4.093S0
G1 X0.554S100
G1 X1.33S0
G1 X0.56S100
G1 X-0.142Y0.1S0
G1 X-2.171S100
G1 X-4.359S0
G1 X-2.144S100
G1 X-4.239S0
G1 X-1.196S100
G1 X-0.239S0
G1 X-0.859S100
G1 X-6.084S0
G1 X-0.617S100
G1 X-4.026S0
G1 X-1.365S100
G1 X-0.468S0
G1 X-0.498S100
G1 X-4.183S0
G1 X-1.397S100
G1 X-0.746S0
G1 X-0.315S100
G1 X-4.495S0
G1 X-0.302S100
G1 X-5.732S0
G1 X-1.185S100
G1 X-0.256S0
G1 X-0.79S100
G1 X-4.092S0
G1 X-0.317S100
G1 X-1.032S0
G1 X-1.152S100
G1 X0.15Y0.1S0
G1 X0.812S100
G1 X1.222S0
G1 X0.317S100
G1 X4.379S0
G1 X0.243S100
G1 X0.637S0
G1 X0.92S100
G1 X5.876S0
G1 X0.302S100
G1 X4.495S0
G1 X0.315S100
G1 X0.886S0
G1 X1.101S100
G1 X4.51S0
G1 X0.317S100
G1 X0.629S0
G1 X1.044S100
G1 X4.196S0
G1 X0.442S100
G1 X6.473S0
G1 X0.456S100
G1 X0.559S0
G1 X0.927S100
G1 X4.571S0
G1 X1.726S100
G1 X4.806S0
G1 X1.719S100
G1 X-0.744Y0.1S0
G1 X-0.257S100
G1 X-6.037S0
G1 X-0.754S100
G1 X-5.321S0
G1 X-0.333S100
G1 X-7.957S0
G1 X-0.276S100
G1 X-4.601S0
G1 X-0.293S100
G1 X-6.099S0
G1 X-0.524S100
G1 X-5.976S0
G1 X-0.302S100
G1 X-6.186S0
G1 X-0.273S100
G1 X-7.44Y0.3S0
G1 X1.038S100
G1 X5.462S0
G1 X1.038S100
G1 X5.462S0
G1 X1.038S100
G1 X5.462S0
G1 X1.038S100
G1 X5.462S0
G1 X1.038S100
G1 X5.462S0
G1 X1.038S100
G1 X5.462S0
G1 X1.038S100
G1 X5.462S0
G1 X1.038S100
G1 X5.462S0
G1 X1.038S100
G1 X0.426Y0.1S0
G1 X-1.879S100
G1 X-4.621S0
G1 X-1.879S100
G1 X-4.621S0
G1 X-1.879S100
G1 X-4.621S0
G1 X-1.879S100
G1 X-4.621S0
G1 X-1.879S100
G1 X-4.621S0
G1 X-1.879S100
G1 X-4.621S0
G1 X-1.879S100
G1 X-4.621S0
G1 X-1.879S100
G1 X-4.621S0
G1 X-1.879S100
G1 X-0.191Y0.1S0
G1 X2.263S100
G1 X4.237S0
G1 X2.263S100
G1 X4.237S0
G1 X2.263S100
G1 X4.237S0
G1 X2.263S100
G1 X4.237S0
G1 X2.263S100
G1 X4.237S0
G1 X2.263S100
G1 X4.237S0
G1 X2.263S100
G1 X4.237S0
G1 X2.263S100
G1 X4.237S0
G1 X2.263S100
G1 X0.111Y0.1S0
G1 X-0.468S100
G1 X-1.557S0
G1 X-0.474S100
G1 X-4.001S0
G1 X-0.468S100
G1 X-1.557S0
G1 X-0.474S100
G1 X-4.001S0
G1 X-0.468S100
G1 X-1.557S0
G1 X-0.474S100
G1 X-4.001S0
G1 X-0.468S100
G1 X-1.557S0
G1 X-0.474S100
G1 X-4.001S0
G1 X-0.468S100
G1 X-1.557S0
G1 X-0.474S100
G1 X-4.001S0
G1 X-0.468S100
G1 X-1.557S0
G1 X-0.474S100
G1 X-4.001S0
G1 X-0.468S100
G1 X-1.557S0
G1 X-0.474S100
G1 X-4.001S0
G1 X-0.468S100
G1 X-1.557S0
G1 X-0.474S100
G1 X-4.001S0
G1 X-0.468S100
G1 X-1.557S0
G1 X-0.474S100
G1 X-0.069Y0.1S0
G1 X0.335S100
G1 X1.962S0
G1 X0.339S100
G1 X3.864S0
G1 X0.335S100
G1 X1.962S0
G1 X0.339S100
G1 X3.864S0
G1 X0.335S100
G1 X1.962S0
G1 X0.339S100
G1 X3.864S0
G1 X0.335S100
G1 X1.962S0
G1 X0.339S100
G1 X3.864S0
G1 X0.335S100
G1 X1.962S0
G1 X0.339S100
G1 X3.864S0
G1 X0.335S100
G1 X1.962S0
G1 X0.339S100
G1 X3.864S0
G1 X0.335S100
G1 X1.962S0
G1 X0.339S100
G1 X3.864S0
G1 X0.335S100
G1 X1.962S0
G1 X0.339S100
G1 X3.864S0
G1 X0.335S100
G1 X1.962S0
G1 X0.339S100
G1 X0.038Y0.1S0
G1 X-0.292S100
G1 X-2.129S0
G1 X-0.289S100
G1 X-3.79S0
G1 X-0.292S100
G1 X-2.129S0
G1 X-0.289S100
G1 X-3.79S0
G1 X-0.292S100
G1 X-2.129S0
G1 X-0.289S100
G1 X-3.79S0
G1 X-0.292S100
G1 X-2.129S0
G1 X-0.289S100
G1 X-3.79S0
G1 X-0.292S100
G1 X-2.129S0
G1 X-0.289S100
G1 X-3.79S0
G1 X-0.292S100
G1 X-2.129S0
G1 X-0.289S100
G1 X-3.79S0
G1 X-0.292S100
G1 X-2.129S0
G1 X-0.289S100
G1 X-3.79S0
G1 X-0.292S100
G1 X-2.129S0
G1 X-0.289S100
G1 X-3.79S0
G1 X-0.292S100
G1 X-2.129S0
G1 X-0.289S100
G1 X-0.013Y0.1S0
G1 X0.273S100
G1 X2.191S0
G1 X0.272S100
G1 X3.764S0
G1 X0.273S100
G1 X2.191S0
G1 X0.272S100
G1 X3.764S0
G1 X0.273S100
G1 X2.191S0
G1 X0.272S100
G1 X3.764S0
G1 X0.273S100
G1 X2.191S0
G1 X0.272S100
G1 X3.764S0
G1 X0.273S100
G1 X2.191S0
G1 X0.272S100
G1 X3.764S0
G1 X0.273S100
G1 X2.191S0
G1 X0.272S100
G1 X3.764S0
G1 X0.273S100
G1 X2.191S0
G1 X0.272S100
G1 X3.764S0
G1 X0.273S100
G1 X2.191S0
G1 X0.272S100
G1 X3.764S0
G1 X0.273S100
G1 X2.191S0
G1 X0.272S100
G1 Y0.1S0
G1 X-0.281S100
G1 X-2.172S0
G1 X-0.275S100
G1 X-3.777S0
G1 X-0.276S100
G1 X-2.172S0
G1 X-0.275S100
G1 X-3.777S0
G1 X-0.276S100
G1 X-2.172S0
G1 X-0.275S100
G1 X-3.777S0
G1 X-0.276S100
G1 X-2.172S0
G1 X-0.275S100
G1 X-3.777S0
G1 X-0.276S100
G1 X-2.172S0
G1 X-0.275S100
G1 X-3.777S0
G1 X-0.276S100
G1 X-2.172S0
G1 X-0.275S100
G1 X-3.777S0
G1 X-0.276S100
G1 X-2.172S0
G1 X-0.275S100
G1 X-3.777S0
G1 X-0.276S100
G1 X-2.172S0
G1 X-0.275S100
G1 X-3.777S0
G1 X-0.276S100
G1 X-2.172S0
G1 X-0.275S100
G1 X0.023Y0.1S0
G1 X0.314S100
G1 X2.047S0
G1 X0.315S100
G1 X3.824S0
G1 X0.314S100
G1 X2.047S0
G1 X0.315S100
G1 X3.824S0
G1 X0.314S100
G1 X2.047S0
G1 X0.315S100
G1 X3.824S0
G1 X0.314S100
G1 X2.047S0
G1 X0.315S100
G1 X3.824S0
G1 X0.314S100
G1 X2.047S0
G1 X0.315S100
G1 X3.824S0
G1 X0.314S100
G1 X2.047S0
G1 X0.315S100
G1 X3.824S0
G1 X0.314S100
G1 X2.047S0
G1 X0.315S100
G1 X3.824S0
G1 X0.314S100
G1 X2.047S0
G1 X0.315S100
G1 X3.824S0
G1 X0.314S100
G1 X2.047S0
G1 X0.315S100
G1 X-0.051Y0.1S0
G1 X-0.393S100
G1 X-1.79S0
G1 X-0.392S100
G1 X-3.925S0
G1 X-0.393S100
G1 X-1.79S0
G1 X-0.392S100
G1 X-3.925S0
G1 X-0.393S100
G1 X-1.79S0
G1 X-0.392S100
G1 X-3.925S0
G1 X-0.393S100
G1 X-1.79S0
G1 X-0.392S100
G1 X-3.925S0
G1 X-0.393S100
G1 X-1.79S0
G1 X-0.392S100
G1 X-3.925S0
G1 X-0.393S100
G1 X-1.79S0
G1 X-0.392S100
G1 X-3.925S0
G1 X-0.393S100
G1 X-1.79S0
G1 X-0.392S100
G1 X-3.925S0
G1 X-0.393S100
G1 X-1.79S0
G1 X-0.392S100
G1 X-3.925S0
G1 X-0.393S100
G1 X-1.79S0
G1 X-0.392S100
G1 X0.091Y0.1S0
G1 X0.684S100
G1 X1.023S0
G1 X0.685S100
G1 X4.108S0
G1 X0.684S100
G1 X1.023S0
G1 X0.685S100
G1 X4.108S0
G1 X0.684S100
G1 X1.023S0
G1 X0.685S100
G1 X4.108S0
G1 X0.684S100
G1 X1.023S0
G1 X0.685S100
G1 X4.108S0
G1 X0.684S100
G1 X1.023S0
G1 X0.685S100
G1 X4.108S0
G1 X0.684S100
G1 X1.023S0
G1 X0.685S100
G1 X4.108S0
G1 X0.684S100
G1 X1.023S0
G1 X0.685S100
G1 X4.108S0
G1 X0.684S100
G1 X1.023S0
G1 X0.685S100
G1 X4.108S0
G1 X0.684S100
G1 X1.023S0
G1 X0.685S100
G1 X-0.151Y0.1S0
G1 X-2.093S100
G1 X-4.407S0
G1 X-2.093S100
G1 X-4.407S0
G1 X-2.093S100
G1 X-4.407S0
G1 X-2.093S100
G1 X-4.407S0
G1 X-2.093S100
G1 X-4.407S0
G1 X-2.093S100
G1 X-4.407S0
G1 X-2.093S100
G1 X-4.407S0
G1 X-2.093S100
G1 X-4.407S0
G1 X-2.093S100
G1 X0.276Y0.1S0
G1 X1.555S100
G1 X4.945S0
G1 X1.555S100
G1 X4.945S0
G1 X1.555S100
G1 X4.945S0
G1 X1.555S100
G1 X4.945S0
G1 X1.555S100
G1 X4.945S0
G1 X1.555S100
G1 X4.945S0
G1 X1.555S100
G1 X4.945S0
G1 X1.555S100
G1 X4.945S0
G1 X1.555S100
G1 X0.542Y0.5S0
G1 X-0.376S100
G1 X-6.124S0
G1 X-0.376S100
G1 X-6.124S0
G1 X-0.376S100
G1 X-6.124S0
G1 X-0.376S100
G1 X-6.124S0
G1 X-0.376S100
G1 X-6.124S0
G1 X-0.376S100
G1 X-6.124S0
G1 X-0.376S100
G1 X-6.124S0
G1 X-0.376S100
G1 X-6.124S0
G1 X-0.376S100
G1 Y0.1S0
G1 X0.376S100
G1 X6.124S0
G1 X0.376S100
G1 X6.124S0
G1 X0.376S100
G1 X6.124S0
G1 X0.376S100
G1 X6.124S0
G1 X0.376S100
G1 X6.124S0
G1 X0.376S100
G1 X6.124S0
G1 X0.376S100
G1 X6.124S0
G1 X0.376S100
G1 X6.124S0
G1 X0.376S100
G1 Y0.1S0
G1 X-0.376S100
G1 X-6.124S0
G1 X-0.376S100
G1 X-6.124S0
G1 X-0.376S100
G1 X-6.124S0
G1 X-0.376S100
G1 X-6.124S0
G1 X-0.376S100
G1 X-6.124S0
G1 X-0.376S100
G1 X-6.124S0
G1 X-0.376S100
G1 X-6.124S0
G1 X-0.376S100
G1 X-6.124S0
G1 X-0.376S100
G1 X-1.698Y0.5S0
G1 X1.484S100
G1 X5.016S0
G1 X1.484S100
G1 X5.016S0
G1 X1.484S100
G1 X5.016S0
G1 X1.484S100
G1 X5.016S0
G1 X1.484S100
G1 X5.016S0
G1 X1.484S100
G1 X5.016S0
G1 X1.484S100
G1 X5.016S0
G1 X1.484S100
G1 X5.016S0
G1 X1.484S100
G1 X0.294Y0.1S0
G1 X-2.06S100
G1 X-4.44S0
G1 X-2.06S100
G1 X-4.44S0
G1 X-2.06S100
G1 X-4.44S0
G1 X-2.06S100
G1 X-4.44S0
G1 X-2.06S100
G1 X-4.44S0
G1 X-2.06S100
G1 X-4.44S0
G1 X-2.06S100
G1 X-4.44S0
G1 X-2.06S100
G1 X-4.44S0
G1 X-2.06S100
G1 X-0.15Y0.1S0
G1 X0.786S100
G1 X0.806S0
G1 X0.777S100
G1 X4.131S0
G1 X0.786S100
G1 X0.806S0
G1 X0.777S100
G1 X4.131S0
G1 X0.786S100
G1 X0.806S0
G1 X0.777S100
G1 X4.131S0
G1 X0.786S100
G1 X0.806S0
G1 X0.777S100
G1 X4.131S0
G1 X0.786S100
G1 X0.806S0
G1 X0.777S100
G1 X4.131S0
G1 X0.786S100
G1 X0.806S0
G1 X0.777S100
G1 X4.131S0
G1 X0.786S100
G1 X0.806S0
G1 X0.777S100
G1 X4.131S0
G1 X0.786S100
G1 X0.806S0
G1 X0.777S100
G1 X4.131S0
G1 X0.786S100
G1 X0.806S0
G1 X0.777S100
G1 X0.092Y0.1S0
G1 X-0.398S100
G1 X-1.758S0
G1 X-0.407S100
G1 X-3.937S0
G1 X-0.398S100
G1 X-1.758S0
G1 X-0.407S100
G1 X-3.937S0
G1 X-0.398S100
G1 X-1.758S0
G1 X-0.407S100
G1 X-3.937S0
G1 X-0.398S100
G1 X-1.758S0
G1 X-0.407S100
G1 X-3.937S0
G1 X-0.398S100
G1 X-1.758S0
G1 X-0.407S100
G1 X-3.937S0
G1 X-0.398S100
G1 X-1.758S0
G1 X-0.407S100
G1 X-3.937S0
G1 X-0.398S100
G1 X-1.758S0
G1 X-0.407S100
G1 X-3.937S0
G1 X-0.398S100
G1 X-1.758S0
G1 X-0.407S100
G1 X-3.937S0
G1 X-0.398S100
G1 X-1.758S0
G1 X-0.407S100
G1 X-0.053Y0.1S0
G1 X0.314S100
G1 X2.038S0
G1 X0.317S100
G1 X3.831S0
G1 X0.314S100
G1 X2.038S0
G1 X0.317S100
G1 X3.831S0
G1 X0.314S100
G1 X2.038S0
G1 X0.317S100
G1 X3.831S0
G1 X0.314S100
G1 X2.038S0
G1 X0.317S100
G1 X3.831S0
G1 X0.314S100
G1 X2.038S0
G1 X0.317S100
G1 X3.831S0
G1 X0.314S100
G1 X2.038S0
G1 X0.317S100
G1 X3.831S0
G1 X0.314S100
G1 X2.038S0
G1 X0.317S100
G1 X3.831S0
G1 X0.314S100
G1 X2.038S0
G1 X0.317S100
G1 X3.831S0
G1 X0.314S100
G1 X2.038S0
G1 X0.317S100
G1 X0.027Y0.1S0
G1 X-0.276S100
G1 X-2.169S0
G1 X-0.278S100
G1 X-3.777S0
G1 X-0.276S100
G1 X-2.169S0
G1 X-0.278S100
G1 X-3.777S0
G1 X-0.276S100
G1 X-2.169S0
G1 X-0.278S100
G1 X-3.777S0
G1 X-0.276S100
G1 X-2.169S0
G1 X-0.278S100
G1 X-3.777S0
G1 X-0.276S100
G1 X-2.169S0
G1 X-0.278S100
G1 X-3.777S0
G1 X-0.276S100
G1 X-2.169S0
G1 X-0.278S100
G1 X-3.777S0
G1 X-0.276S100
G1 X-2.169S0
G1 X-0.278S100
G1 X-3.777S0
G1 X-0.276S100
G1 X-2.169S0
G1 X-0.278S100
G1 X-3.777S0
G1 X-0.276S100
G1 X-2.169S0
G1 X-0.278S100
G1 X-0.006Y0.1S0
G1 X0.274S100
G1 X2.192S0
G1 X0.272S100
G1 X3.762S0
G1 X0.274S100
G1 X2.192S0
G1 X0.272S100
G1 X3.762S0
G1 X0.274S100
G1 X2.192S0
G1 X0.272S100
G1 X3.762S0
G1 X0.274S100
G1 X2.192S0
G1 X0.272S100
G1 X3.762S0
G1 X0.274S100
G1 X2.192S0
G1 X0.272S100
G1 X3.762S0
G1 X0.274S100
G1 X2.192S0
G1 X0.272S100
G1 X3.762S0
G1 X0.274S100
G1 X2.192S0
G1 X0.272S100
G1 X3.762S0
G1 X0.274S100
G1 X2.192S0
G1 X0.272S100
G1 X3.762S0
G1 X0.274S100
G1 X2.192S0
G1 X0.272S100
G1 X-0.011Y0.1S0
G1 X-0.29S100
G1 X-2.134S0
G1 X-0.288S100
G1 X-3.788S0
G1 X-0.29S100
G1 X-2.134S0
G1 X-0.288S100
G1 X-3.788S0
G1 X-0.29S100
G1 X-2.134S0
G1 X-0.288S100
G1 X-3.788S0
G1 X-0.29S100
G1 X-2.134S0
G1 X-0.288S100
G1 X-3.788S0
G1 X-0.29S100
G1 X-2.134S0
G1 X-0.288S100
G1 X-3.788S0
G1 X-0.29S100
G1 X-2.134S0
G1 X-0.288S100
G1 X-3.788S0
G1 X-0.29S100
G1 X-2.134S0
G1 X-0.288S100
G1 X-3.788S0
G1 X-0.29S100
G1 X-2.134S0
G1 X-0.288S100
G1 X-3.788S0
G1 X-0.29S100
G1 X-2.134S0
G1 X-0.288S100
G1 X0.036Y0.1S0
G1 X0.332S100
G1 X1.973S0
G1 X0.337S100
G1 X3.858S0
G1 X0.332S100
G1 X1.973S0
G1 X0.337S100
G1 X3.858S0
G1 X0.332S100
G1 X1.973S0
G1 X0.337S100
G1 X3.858S0
G1 X0.332S100
G1 X1.973S0
G1 X0.337S100
G1 X3.858S0
G1 X0.332S100
G1 X1.973S0
G1 X0.337S100
G1 X3.858S0
G1 X0.332S100
G1 X1.973S0
G1 X0.337S100
G1 X3.858S0
G1 X0.332S100
G1 X1.973S0
G1 X0.337S100
G1 X3.858S0
G1 X0.332S100
G1 X1.973S0
G1 X0.337S100
G1 X3.858S0
G1 X0.332S100
G1 X1.973S0
G1 X0.337S100
G1 X-0.065Y0.1S0
G1 X-0.455S100
G1 X-1.609S0
G1 X-0.45S100
G1 X-3.986S0
G1 X-0.455S100
G1 X-1.609S0
G1 X-0.45S100
G1 X-3.986S0
G1 X-0.455S100
G1 X-1.609S0
G1 X-0.45S100
G1 X-3.986S0
G1 X-0.455S100
G1 X-1.609S0
G1 X-0.45S100
G1 X-3.986S0
G1 X-0.455S100
G1 X-1.609S0
G1 X-0.45S100
G1 X-3.986S0
G1 X-0.455S100
G1 X-1.609S0
G1 X-0.45S100
G1 X-3.986S0
G1 X-0.455S100
G1 X-1.609S0
G1 X-0.45S100
G1 X-3.986S0
G1 X-0.455S100
G1 X-1.609S0
G1 X-0.45S100
G1 X-3.986S0
G1 X-0.455S100
G1 X-1.609S0
G1 X-0.45S100
G1 X0.107Y0.1S0
G1 X2.287S100
G1 X4.213S0
G1 X2.287S100
G1 X4.213S0
G1 X2.287S100
G1 X4.213S0
G1 X2.287S100
G1 X4.213S0
G1 X2.287S100
G1 X4.213S0
G1 X2.287S100
G1 X4.213S0
G1 X2.287S100
G1 X4.213S0
G1 X2.287S100
G1 X4.213S0
G1 X2.287S100
G1 X-0.179Y0.1S0
G1 X-1.921S100
G1 X-4.579S0
G1 X-1.921S100
G1 X-4.579S0
G1 X-1.921S100
G1 X-4.579S0
G1 X-1.921S100
G1 X-4.579S0
G1 X-1.921S100
G1 X-4.579S0
G1 X-1.921S100
G1 X-4.579S0
G1 X-1.921S100
G1 X-4.579S0
G1 X-1.921S100
G1 X-4.579S0
G1 X-1.921S100
G1 X0.353Y0.1S0
G1 X1.183S100
G1 X5.317S0
G1 X1.183S100
G1 X5.317S0
G1 X1.183S100
G1 X5.317S0
G1 X1.183S100
G1 X5.317S0
G1 X1.183S100
G1 X5.317S0
G1 X1.183S100
G1 X5.317S0
G1 X1.183S100
G1 X5.317S0
G1 X1.183S100
G1 X5.317S0
G1 X1.183S100
G1 X-57.713Y1.8S0
G1 X-0.493S100
G1 X-1.082S0
G1 X-0.493S100
G1 X-1.045S0
G1 X-0.556S100
G1 X-0.135Y0.1S0
G1 X0.826S100
G1 X0.785S0
G1 X0.743S100
G1 X0.832S0
G1 X0.743S100
G1 X0.066Y0.1S0
G1 X-0.883S100
G1 X-0.692S0
G1 X-0.883S100
G1 X-0.624S0
G1 X-1S100
G1 X-0.063Y0.1S0
G1 X0.332S100
G1 X0.472S0
G1 X0.322S100
G1 X0.512S0
G1 X0.3S100
G1 X0.391S0
G1 X0.303S100
G1 X0.581S0
G1 X0.3S100
G1 X0.391S0
G1 X0.303S100
G1 X0.035Y0.1S0
G1 X-0.264S100
G1 X-0.539S0
G1 X-0.271S100
G1 X-0.501S0
G1 X-0.264S100
G1 X-0.539S0
G1 X-0.271S100
G1 X-0.426S0
G1 X-0.288S100
G1 X-0.631S0
G1 X-0.288S100
G1 X-0.029Y0.1S0
G1 X0.268S100
G1 X0.73S0
G1 X0.267S100
G1 X0.37S0
G1 X0.254S100
G1 X0.627S0
G1 X0.255S100
G1 X0.439S0
G1 X0.254S100
G1 X0.627S0
G1 X0.255S100
G1 X0.025Y0.1S0
G1 X-0.249S100
G1 X-0.689S0
G1 X-0.248S100
G1 X-0.389S0
G1 X-0.249S100
G1 X-0.689S0
G1 X-0.248S100
G1 X-0.325S0
G1 X-0.262S100
G1 X-0.783S0
G1 X-0.261S100
G1 X-0.007Y0.1S0
G1 X0.256S100
G1 X0.808S0
G1 X0.256S100
G1 X0.298S0
G1 X0.25S100
G1 X0.725S0
G1 X0.247S100
G1 X0.353S0
G1 X0.25S100
G1 X0.725S0
G1 X0.247S100
G1 X0.016Y0.1S0
G1 X-0.248S100
G1 X-0.755S0
G1 X-0.247S100
G1 X-0.325S0
G1 X-0.248S100
G1 X-0.755S0
G1 X-0.247S100
G1 X-0.288S0
G1 X-0.255S100
G1 X-0.807S0
G1 X-0.255S100
G1 X0.01Y0.1S0
G1 X0.259S100
G1 X0.779S0
G1 X0.258S100
G1 X0.286S0
G1 X0.252S100
G1 X0.772S0
G1 X0.253S100
G1 X0.298S0
G1 X0.251S100
G1 X0.773S0
G1 X0.253S100
G1 Y0.1S0
G1 X-0.245S100
G1 X-0.789S0
G1 X-0.251S100
G1 X-0.286S0
G1 X-0.248S100
G1 X-0.79S0
G1 X-0.251S100
G1 X-0.293S0
G1 X-0.27S100
G1 X-0.727S0
G1 X-0.273S100
G1 X0.038Y0.1S0
G1 X0.285S100
G1 X0.626S0
G1 X0.284S100
G1 X0.326S0
G1 X0.252S100
G1 X0.795S0
G1 X0.25S100
G1 X0.278S0
G1 X0.252S100
G1 X0.795S0
G1 X0.25S100
G1 Y0.1S0
G1 X-0.248S100
G1 X-0.799S0
G1 X-0.253S100
G1 X-0.27S0
G1 X-0.253S100
G1 X-0.799S0
G1 X-0.253S100
G1 X-0.369S0
G1 X-0.314S100
G1 X-0.476S0
G1 X-0.32S100
G1 X0.081Y0.1S0
G1 X0.952S100
G1 X0.442S0
G1 X0.254S100
G1 X0.805S0
G1 X0.254S100
G1 X0.262S0
G1 X0.254S100
G1 X0.805S0
G1 X0.254S100
G1 Y0.1S0
G1 X-0.256S100
G1 X-0.8S0
G1 X-0.253S100
G1 X-0.269S0
G1 X-0.253S100
G1 X-0.8S0
G1 X-0.253S100
G1 X-0.577S0
G1 X-0.687S100
G1 X-0.027Y0.1S0
G1 X0.748S100
G1 X0.548S0
G1 X0.25S100
G1 X0.795S0
G1 X0.253S100
G1 X0.277S0
G1 X0.25S100
G1 X0.795S0
G1 X0.253S100
G1 Y0.1S0
G1 X-0.255S100
G1 X-0.79S0
G1 X-0.249S100
G1 X-0.284S0
G1 X-0.252S100
G1 X-0.79S0
G1 X-0.249S100
G1 X-0.458S0
G1 X-0.33S100
G1 X-0.279S0
G1 X-0.329S100
G1 X-0.057Y0.1S0
G1 X0.28S100
G1 X0.49S0
G1 X0.281S100
G1 X0.406S0
G1 X0.254S100
G1 X0.773S0
G1 X0.253S100
G1 X0.295S0
G1 X0.254S100
G1 X0.773S0
G1 X0.253S100
G1 X-0.012Y0.1S0
G1 X-0.25S100
G1 X-0.755S0
G1 X-0.251S100
G1 X-0.319S0
G1 X-0.25S100
G1 X-0.755S0
G1 X-0.251S100
G1 X-0.381S0
G1 X-0.267S100
G1 X-0.591S0
G1 X-0.266S100
G1 X-0.012Y0.1S0
G1 X0.257S100
G1 X0.633S0
G1 X0.257S100
G1 X0.387S0
G1 X0.248S100
G1 X0.728S0
G1 X0.251S100
G1 X0.348S0
G1 X0.248S100
G1 X0.728S0
G1 X0.251S100
G1 X-0.02Y0.1S0
G1 X-0.25S100
G1 X-0.689S0
G1 X-0.252S100
G1 X-0.384S0
G1 X-0.25S100
G1 X-0.689S0
G1 X-0.252S100
G1 X-0.397S0
G1 X-0.256S100
G1 X-0.652S0
G1 X-0.252S100
G1 X0.007Y0.1S0
G1 X0.26S100
G1 X0.623S0
G1 X0.263S100
G1 X0.426S0
G1 X0.256S100
G1 X0.635S0
G1 X0.253S100
G1 X0.431S0
G1 X0.256S100
G1 X0.635S0
G1 X0.253S100
G1 X-0.031Y0.1S0
G1 X-0.263S100
G1 X-0.556S0
G1 X-0.259S100
G1 X-0.497S0
G1 X-0.263S100
G1 X-0.556S0
G1 X-0.259S100
G1 X-0.482S0
G1 X-0.277S100
G1 X-0.555S0
G1 X-0.274S100
G1 X0.031Y0.1S0
G1 X0.305S100
G1 X0.431S0
G1 X0.306S100
G1 X0.551S0
G1 X0.287S100
G1 X0.42S0
G1 X0.296S100
G1 X0.572S0
G1 X0.287S100
G1 X0.42S0
G1 X0.296S100
G1 X-0.053Y0.1S0
G1 X-0.428S100
G1 X-0.049S0
G1 X-0.415S100
G1 X-0.683S0
G1 X-0.428S100
G1 X-0.049S0
G1 X-0.415S100
G1 X-0.66S0
G1 X-0.445S100
G1 X-0.048S0
G1 X-0.449S100
G1 X0.073Y0.1S0
G1 X0.795S100
G1 X0.8S0
G1 X0.756S100
G1 X0.819S0
G1 X0.756S100
G1 X-0.115Y0.1S0
G1 X-0.53S100
G1 X-1.045S0
G1 X-0.53S100
G1 X-1.03S0
G1 X-0.557S100
G1 X-1.269Y3.9S0
G1 X0.247S100
G1 X1.053S0
G1 X0.493S100
G1 X1.357S0
G1 X0.247S100
G1 X1.021S0
G1 X0.541S100
G1 X0.135Y0.1S0
G1 X-0.807S100
G1 X-0.89S0
G1 X-0.247S100
G1 X-1.232S0
G1 X-0.743S100
G1 X-0.928S0
G1 X-0.247S100
G1 Y0.1S0
G1 X0.247S100
G1 X0.854S0
G1 X0.883S100
G1 X1.166S0
G1 X0.247S100
G1 X0.807S0
G1 X0.979S100
G1 X0.065Y0.1S0
G1 X-0.33S100
G1 X-0.446S0
G1 X-0.327S100
G1 X-0.748S0
G1 X-0.247S100
G1 X-1.104S0
G1 X-0.303S100
G1 X-0.391S0
G1 X-0.3S100
G1 X-0.805S0
G1 X-0.247S100
G1 Y0.1S0
G1 X0.247S100
G1 X0.76S0
G1 X0.271S100
G1 X0.539S0
G1 X0.264S100
G1 X1.069S0
G1 X0.247S100
G1 X0.704S0
G1 X0.296S100
G1 X0.598S0
G1 X0.297S100
G1 X0.033Y0.1S0
G1 X-0.28S100
G1 X-0.699S0
G1 X-0.273S100
G1 X-0.676S0
G1 X-0.247S100
G1 X-1.034S0
G1 X-0.255S100
G1 X-0.627S0
G1 X-0.254S100
G1 X-0.733S0
G1 X-0.247S100
G1 Y0.1S0
G1 X0.247S100
G1 X0.708S0
G1 X0.248S100
G1 X0.689S0
G1 X0.249S100
G1 X1.009S0
G1 X0.247S100
G1 X0.658S0
G1 X0.267S100
G1 X0.754S0
G1 X0.272S100
G1 X0.008Y0.1S0
G1 X-0.267S100
G1 X-0.791S0
G1 X-0.199S100
G1 X-0.702S0
G1 X-0.247S100
G1 X-0.993S0
G1 X-0.247S100
G1 X-0.725S0
G1 X-0.25S100
G1 X-0.688S0
G1 X-0.247S100
G1 Y0.1S0
G1 X0.247S100
G1 X0.676S0
G1 X0.247S100
G1 X0.755S0
G1 X0.248S100
G1 X0.977S0
G1 X0.247S100
G1 X1.697S0
G1 X0.264S100
G1 X-0.01Y0.1S0
G1 X-0.267S100
G1 X-1.684S0
G1 X-0.247S100
G1 X-0.963S0
G1 X-0.253S100
G1 X-0.773S0
G1 X-0.251S100
G1 X-0.663S0
G1 X-0.247S100
G1 Y0.1S0
G1 X0.247S100
G1 X0.655S0
G1 X0.251S100
G1 X0.789S0
G1 X0.249S100
G1 X0.959S0
G1 X0.247S100
G1 X1.661S0
G1 X0.28S100
G1 X-0.035Y0.1S0
G1 X-0.295S100
G1 X-1.611S0
G1 X-0.247S100
G1 X-0.955S0
G1 X-0.25S100
G1 X-0.795S0
G1 X-0.252S100
G1 X-0.651S0
G1 X-0.247S100
G1 Y0.1S0
G1 X0.247S100
G1 X0.648S0
G1 X0.253S100
G1 X0.799S0
G1 X0.253S100
G1 X0.95S0
G1 X0.247S100
G1 X1.536S0
G1 X0.332S100
G1 X-0.08Y0.1S0
G1 X-0.65S100
G1 X-1.138S0
G1 X-0.247S100
G1 X-0.946S0
G1 X-0.254S100
G1 X-0.805S0
G1 X-0.254S100
G1 X-0.644S0
G1 X-0.247S100
G1 Y0.1S0
G1 X0.247S100
G1 X0.648S0
G1 X0.253S100
G1 X0.8S0
G1 X0.253S100
G1 X0.949S0
G1 X0.247S100
G1 X1.147S0
G1 X0.507S100
G1 X0.013Y0.1S0
G1 X-0.51S100
G1 X-1.157S0
G1 X-0.247S100
G1 X-0.952S0
G1 X-0.253S100
G1 X-0.795S0
G1 X-0.25S100
G1 X-0.653S0
G1 X-0.247S100
G1 Y0.1S0
G1 X0.247S100
G1 X0.657S0
G1 X0.249S100
G1 X0.79S0
G1 X0.252S100
G1 X0.955S0
G1 X0.247S100
G1 X1.407S0
G1 X0.346S100
G1 X0.055Y0.1S0
G1 X-0.277S100
G1 X-1.531S0
G1 X-0.247S100
G1 X-0.467S0
G1 X-0.027S100
G1 X-0.468S0
G1 X-0.253S100
G1 X-0.773S0
G1 X-0.254S100
G1 X-0.661S0
G1 X-0.247S100
G1 X-0.467S0
G1 X-0.027S100
G1 Y0.1S0
G1 X0.185S100
G1 X0.309S0
G1 X0.247S100
G1 X0.673S0
G1 X0.251S100
G1 X0.755S0
G1 X0.25S100
G1 X0.48S0
G1 X0.185S100
G1 X0.309S0
G1 X0.247S100
G1 X1.583S0
G1 X0.26S100
G1 X0.014Y0.1S0
G1 X-0.252S100
G1 X-1.605S0
G1 X-0.247S100
G1 X-0.182S0
G1 X-0.312S100
G1 X-0.492S0
G1 X-0.251S100
G1 X-0.728S0
G1 X-0.248S100
G1 X-0.69S0
G1 X-0.247S100
G1 X-0.182S0
G1 X-0.312S100
G1 Y0.1S0
G1 X0.42S100
G1 X0.074S0
G1 X0.247S100
G1 X0.706S0
G1 X0.252S100
G1 X0.689S0
G1 X0.25S100
G1 X0.512S0
G1 X0.42S100
G1 X0.074S0
G1 X0.247S100
G1 X0.674S0
G1 X0.26S100
G1 X0.675S0
G1 X0.254S100
G1 X-0.01Y0.1S0
G1 X-0.258S100
G1 X-0.64S0
G1 X-0.262S100
G1 X-0.693S0
G1 X-0.61S100
G1 X-0.668S0
G1 X-0.253S100
G1 X-0.635S0
G1 X-0.256S100
G1 X-0.728S0
G1 X-0.61S100
G1 X0.116Y0.1S0
G1 X0.494S100
G1 X0.763S0
G1 X0.259S100
G1 X0.556S0
G1 X0.263S100
G1 X0.815S0
G1 X0.494S100
G1 X0.72S0
G1 X0.277S100
G1 X0.566S0
G1 X0.27S100
G1 X-0.033Y0.1S0
G1 X-0.297S100
G1 X-0.444S0
G1 X-0.302S100
G1 X-0.757S0
G1 X-0.396S100
G1 X-0.952S0
G1 X-0.296S100
G1 X-0.42S0
G1 X-0.287S100
G1 X-0.799S0
G1 X-0.396S100
G1 X0.077Y0.1S0
G1 X0.319S100
G1 X0.857S0
G1 X0.415S100
G1 X0.049S0
G1 X0.428S100
G1 X1.082S0
G1 X0.319S100
G1 X0.808S0
G1 X0.449S100
G1 X0.049S0
G1 X0.439S100
G1 X-0.075Y0.1S0
G1 X-0.788S100
G1 X-0.882S0
G1 X-0.246S100
G1 X-1.225S0
G1 X-0.756S100
G1 X-0.923S0
G1 X-0.246S100
G1 X0.049Y0.1S0
G1 X0.197S100
G1 X1.034S0
G1 X0.53S100
G1 X1.389S0
G1 X0.197S100
G1 X1.005S0
G1 X0.538S100
G1 X0.008Y3.9S0
G1 X-0.531S100
G1 X-0.652S0
G1 X-1.329S100
G1 X-0.246S0
G1 X-1.329S100
G1 X-0.614S0
G1 X-0.247S100
G1 Y0.1S0
G1 X0.247S100
G1 X0.619S0
G1 X1.324S100
G1 X0.251S0
G1 X1.324S100
G1 X0.517S0
G1 X0.806S100
G1 X0.083Y0.1S0
G1 X-0.973S100
G1 X-0.433S0
G1 X-1.304S100
G1 X-0.271S0
G1 X-1.304S100
G1 X-0.639S0
G1 X-0.247S100
G1 Y0.1S0
G1 X0.247S100
G1 X0.674S0
G1 X0.283S100
G1 X1.292S0
G1 X0.283S100
G1 X1.361S0
G1 X0.336S100
G1 X0.439S0
G1 X0.321S100
G1 X0.05Y0.1S0
G1 X-0.29S100
G1 X-0.597S0
G1 X-0.302S100
G1 X-1.264S0
G1 X-0.298S100
G1 X-1.277S0
G1 X-0.298S100
G1 X-0.713S0
G1 X-0.247S100
G1 Y0.1S0
G1 X0.247S100
G1 X0.767S0
G1 X0.311S100
G1 X1.265S0
G1 X0.31S100
G1 X1.169S0
G1 X0.278S100
G1 X0.694S0
G1 X0.278S100
G1 X0.026Y0.1S0
G1 X-0.262S100
G1 X-0.758S0
G1 X-0.272S100
G1 X-1.072S0
G1 X-0.331S100
G1 X-1.244S0
G1 X-0.331S100
G1 X-0.828S0
G1 X-0.247S100
G1 Y0.1S0
G1 X0.247S100
G1 X0.9S0
G1 X0.346S100
G1 X1.229S0
G1 X0.346S100
G1 X1.111S0
G1 X0.125S100
G1 X0.791S0
G1 X0.268S100
G1 X0.008Y0.1S0
G1 X-0.264S100
G1 X-1.952S0
G1 X-0.355S100
G1 X-1.22S0
G1 X-0.355S100
G1 X-0.978S0
G1 X-0.247S100
G1 Y0.1S0
G1 X0.247S100
G1 X1.064S0
G1 X0.355S100
G1 X1.22S0
G1 X0.355S100
G1 X1.868S0
G1 X0.267S100
G1 X-0.007Y0.1S0
G1 X-0.271S100
G1 X-1.772S0
G1 X-0.353S100
G1 X-1.222S0
G1 X-0.353S100
G1 X-1.151S0
G1 X-0.247S100
G1 Y0.1S0
G1 X0.247S100
G1 X1.24S0
G1 X0.347S100
G1 X1.228S0
G1 X0.347S100
G1 X1.677S0
G1 X0.273S100
G1 X-0.02Y0.1S0
G1 X-0.295S100
G1 X-1.56S0
G1 X-0.338S100
G1 X-1.237S0
G1 X-0.338S100
G1 X-1.324S0
G1 X-0.247S100
G1 Y0.1S0
G1 X0.247S100
G1 X1.406S0
G1 X0.329S100
G1 X1.246S0
G1 X0.329S100
G1 X0.535S0
G1 X0.281S100
G1 X0.625S0
G1 X0.309S100
G1 X-0.041Y0.1S0
G1 X-0.366S100
G1 X-0.427S0
G1 X-0.367S100
G1 X-0.491S0
G1 X-0.313S100
G1 X-1.262S0
G1 X-0.313S100
G1 X-1.48S0
G1 X-0.247S100
G1 Y0.1S0
G1 X0.247S100
G1 X1.545S0
G1 X0.299S100
G1 X1.276S0
G1 X0.299S100
G1 X0.454S0
G1 X1.085S100
G1 X-0.084Y0.1S0
G1 X-0.742S100
G1 X-0.244
G1 X-0.428S0
G1 X-0.289S100
G1 X-1.286S0
G1 X-0.289S100
G1 X-1.596S0
G1 X-0.247S100
G1 X-0.494Y0.1S0
G1 X0.027S100
G1 X0.467S0
G1 X0.247S100
G1 X1.638S0
G1 X0.273S100
G1 X1.302S0
G1 X0.273S100
G1 X0.416S0
G1 X0.237S100
G1 X0.135S0
G1 X0.472S100
G1 X-0.592Y0.1S0
G1 X-0.238S100
G1 X-0.411S0
G1 X-0.264S100
G1 X-1.311S0
G1 X-0.264S100
G1 X-1.666S0
G1 X-0.247S100
G1 X-0.309S0
G1 X-0.185S100
G1 Y0.1S0
G1 X0.312S100
G1 X0.182S0
G1 X0.247S100
G1 X0.661S0
G1 X0.257S100
G1 X0.763S0
G1 X0.257S100
G1 X0.298S0
G1 X0.257S100
G1 X0.763S0
G1 X0.257S100
G1 X0.417S0
G1 X0.239S100
G1 X0.015Y0.1S0
G1 X-0.24S100
G1 X-0.433S0
G1 X-0.258S100
G1 X-0.748S0
G1 X-0.258S100
G1 X-0.311S0
G1 X-0.258S100
G1 X-0.748S0
G1 X-0.258S100
G1 X-0.672S0
G1 X-0.247S100
G1 X-0.074S0
G1 X-0.42S100
G1 X0.131Y0.1S0
G1 X0.61S100
G1 X0.687S0
G1 X0.259S100
G1 X0.717S0
G1 X0.263S100
G1 X0.336S0
G1 X0.259S100
G1 X0.717S0
G1 X0.263S100
G1 X0.457S0
G1 X0.241S100
G1 X0.015Y0.1S0
G1 X-0.242S100
G1 X-0.494S0
G1 X-0.285S100
G1 X-0.625S0
G1 X-0.28S100
G1 X-0.385S0
G1 X-0.285S100
G1 X-0.625S0
G1 X-0.28S100
G1 X-0.713S0
G1 X-0.494S100
G1 X0.098Y0.1S0
G1 X0.396S100
G1 X0.75S0
G1 X0.308S100
G1 X0.487S0
G1 X0.321S100
G1 X0.459S0
G1 X0.308S100
G1 X0.487S0
G1 X0.321S100
G1 X0.546S0
G1 X0.242S100
G1 X0.805Y0.1S0
G1 X-1.033S100
G1 X-0.614S0
G1 X-0.487S100
G1 X-0.054S0
G1 X-0.469S100
G1 X-0.565S0
G1 X-0.487S100
G1 X-0.054S0
G1 X-0.469S100
G1 X-0.802S0
G1 X-0.319S100
G1 X0.073Y0.1S0
G1 X0.246S100
G1 X0.879S0
G1 X0.856S100
G1 X0.719S0
G1 X0.856S100
G1 X0.705S0
G1 X1.019S100
G1 Y0.1S0
G1 X-1.005S100
G1 X-0.845S0
G1 X-0.6S100
G1 X-0.975S0
G1 X-0.6S100
G1 X-1.009S0
G1 X-0.197S100
G1 X-3.133Y0.3S0
G1 X0.308S100
G1 X0.2Y0.1S0
G1 X-0.517S100
G1 X-0.856S0
G1 X-0.521S100
G1 X-0.166Y0.1S0
G1 X0.839S100
G1 X0.695S0
G1 X0.643S100
G1 X0.084Y0.1S0
G1 X-0.605S100
G1 X-0.724S0
G1 X-1.04S100
G1 X-0.058Y0.1S0
G1 X0.468S100
G1 X0.193S0
G1 X0.504S100
G1 X0.877S0
G1 X0.447S100
G1 X0.045Y0.1S0
G1 X-0.389S100
G1 X-0.93S0
G1 X-0.397S100
G1 X-0.503S0
G1 X-0.37S100
G1 X-0.03Y0.1S0
G1 X0.329S100
G1 X0.63S0
G1 X0.378S100
G1 X0.95S0
G1 X0.36S100
G1 X0.029Y0.1S0
G1 X-0.344S100
G1 X-0.964S0
G1 X-0.37S100
G1 X-0.708S0
G1 X-0.319S100
G1 X-0.014Y0.1S0
G1 X0.312S100
G1 X0.76S0
G1 X0.367S100
G1 X0.967S0
G1 X0.331S100
G1 X0.008Y0.1S0
G1 X-0.319S100
G1 X-0.962S0
G1 X-0.366S100
G1 X-0.797S0
G1 X-0.31S100
G1 X-0.006Y0.1S0
G1 X0.312S100
G1 X0.826S0
G1 X0.366S100
G1 X0.946S0
G1 X0.318S100
G1 Y0.1S0
G1 X-0.315S100
G1 X-0.923S0
G1 X-0.368S100
G1 X-0.845S0
G1 X-0.309S100
G1 X0.009Y0.1S0
G1 X0.313S100
G1 X0.856S0
G1 X0.37S100
G1 X0.889S0
G1 X0.318S100
G1 X-0.01Y0.1S0
G1 X-0.324S100
G1 X-0.846S0
G1 X-0.371S100
G1 X-0.857S0
G1 X-0.322S100
G1 X0.029Y0.1S0
G1 X0.337S100
G1 X0.841S0
G1 X0.375S100
G1 X0.787S0
G1 X0.331S100
G1 X-0.032Y0.1S0
G1 X-0.346S100
G1 X-0.693S0
G1 X-0.391S100
G1 X-0.796S0
G1 X-0.384S100
G1 X0.056Y0.1S0
G1 X0.475S100
G1 X0.687S0
G1 X0.418S100
G1 X0.557S0
G1 X0.384S100
G1 X-0.062Y0.1S0
G1 X-0.462S100
G1 X-0.287S0
G1 X-0.492S100
G1 X-0.542S0
G1 X-0.617S100
G1 X0.104Y0.1S0
G1 X0.505S100
G1 X0.61S0
G1 X1.119S100
G1 X-0.112Y0.1S0
G1 X-0.91S100
G1 X-0.714S0
G1 X-0.35S100
G1 X1.211Y0.1S0
G1 X0.602S100
G1 X1.203Y0.6S0
G1 X-2.69S100
G1 Y0.1S0
G1 X2.69S100
G1 Y0.1S0
G1 X-2.69S100
G1 X0.171Y0.1S0
G1 X0.397S100
G1 X0.835S0
G1 X0.383S100
G1 X0.085Y0.1S0
G1 X-0.312S100
G1 X-1.159S0
G1 X-0.32S100
G1 X-0.062Y0.1S0
G1 X0.289S100
G1 X1.336S0
G1 X0.286S100
G1 X0.037Y0.1S0
G1 X-0.275S100
G1 X-1.442S0
G1 X-0.268S100
G1 X-0.015Y0.1S0
G1 X0.256S100
G1 X1.49S0
G1 X0.269S100
G1 Y0.1S0
G1 X-0.269S100
G1 X-1.493S0
G1 X-0.262S100
G1 X0.014Y0.1S0
G1 X0.268S100
G1 X1.45S0
G1 X0.281S100
G1 X7.17Y0.1S0
G1 X-0.556S100
G1 X-1.04S0
G1 X-0.541S100
G1 X-0.912S0
G1 X-0.247S100
G1 X-1.437S0
G1 X-0.247S100
G1 X-2.208S0
G1 X-0.313S100
G1 X-1.352S0
G1 X-0.303S100
G1 X0.038Y0.1S0
G1 X0.35S100
G1 X1.183S0
G1 X0.351S100
G1 X2.254S0
G1 X0.247S100
G1 X1.437S0
G1 X0.247S100
G1 X0.781S0
G1 X0.807S100
G1 X0.77S0
G1 X0.826S100
G1 X0.087Y0.1S0
G1 X-1S100
G1 X-0.594S0
G1 X-0.979S100
G1 X-0.698S0
G1 X-0.247S100
G1 X-1.437S0
G1 X-0.247S100
G1 X-2.3S0
G1 X-0.456S100
G1 X-0.884S0
G1 X-0.451S100
G1 X0.078Y0.1S0
G1 X1.627S100
G1 X2.386S0
G1 X0.247S100
G1 X1.437S0
G1 X0.247S100
G1 X0.639S0
G1 X0.327S100
G1 X0.446S0
G1 X0.33S100
G1 X0.466S0
G1 X0.332S100
G1 X0.472S0
G1 X0.322S100
G1 X0.041Y0.1S0
G1 X-0.288S100
G1 X-0.631S0
G1 X-0.288S100
G1 X-0.382S0
G1 X-0.297S100
G1 X-0.598S0
G1 X-0.296S100
G1 X-0.595S0
G1 X-0.247S100
G1 X-1.437S0
G1 X-0.247S100
G1 X-2.489S0
G1 X-1.431S100
G1 X0.172Y0.1S0
G1 X1.099S100
G1 X2.649S0
G1 X0.247S100
G1 X1.437S0
G1 X0.247S100
G1 X0.567S0
G1 X0.273S100
G1 X0.699S0
G1 X0.28S100
G1 X0.32S0
G1 X0.268S100
G1 X0.73S0
G1 X0.267S100
G1 X0.02Y0.1S0
G1 X-0.262S100
G1 X-0.783S0
G1 X-0.261S100
G1 X-0.276S0
G1 X-0.272S100
G1 X-0.754S0
G1 X-0.267S100
G1 X-0.549S0
G1 X-0.247S100
G1 X-1.437S0
G1 X-0.247S100
G1 X-3.025S0
G1 X-0.362S100
G1 X3.387Y0.1S0
G1 X0.247S100
G1 X0.563S0
G1 X1.393S100
G1 X0.321S0
G1 X0.199S100
G1 X0.791S0
G1 X0.267S100
G1 X0.261S0
G1 X0.256S100
G1 X0.808S0
G1 X0.256S100
G1 Y0.1S0
G1 X-0.257S100
G1 X-0.807S0
G1 X-0.255S100
G1 X-0.26S0
G1 X-0.264S100
G1 X-1.316S0
G1 X-1.393S100
G1 X-0.563S0
G1 X-0.247S100
G1 Y0.1S0
G1 X0.247S100
G1 X0.563S0
G1 X1.393S100
G1 X1.303S0
G1 X0.267S100
G1 X0.28S0
G1 X0.259S100
G1 X0.779S0
G1 X0.258S100
G1 X-0.015Y0.1S0
G1 X-0.27S100
G1 X-0.727S0
G1 X-0.273S100
G1 X-0.302S0
G1 X-0.279S100
G1 X-1.552S0
G1 X-0.247S100
G1 X-0.592S0
G1 X-0.243S100
G1 X-0.602S0
G1 X-0.247S100
G1 X-2.709S0
G1 X-0.939S100
G1 X-0.189Y0.1S0
G1 X1.312S100
G1 X2.525S0
G1 X0.247S100
G1 X0.655S0
G1 X0.242S100
G1 X0.54S0
G1 X0.247S100
G1 X1.502S0
G1 X0.295S100
G1 X0.374S0
G1 X0.285S100
G1 X0.626S0
G1 X0.284S100
G1 X-0.046Y0.1S0
G1 X-0.314S100
G1 X-0.476S0
G1 X-0.32S100
G1 X-0.451S0
G1 X-0.332S100
G1 X-1.427S0
G1 X-0.247S100
G1 X-0.488S0
G1 X-0.241S100
G1 X-0.708S0
G1 X-0.247S100
G1 X-2.408S0
G1 X-1.55S100
G1 X-0.087Y0.1S0
G1 X0.532S100
G1 X0.139S0
G1 X0.271S100
G1 X0.233S0
G1 X0.547S100
G1 X2.323S0
G1 X0.247S100
G1 X0.761S0
G1 X0.24S100
G1 X0.436S0
G1 X0.247S100
G1 X1.029S0
G1 X0.65S100
G1 X0.612S0
G1 X0.952S100
G1 X-0.131Y0.1S0
G1 X-0.687S100
G1 X-0.88S0
G1 X-0.507S100
G1 X-1.038S0
G1 X-0.247S100
G1 X-0.384S0
G1 X-0.24S100
G1 X-0.813S0
G1 X-0.247S100
G1 X-2.27S0
G1 X-0.396S100
G1 X-0.437S0
G1 X-0.271S100
G1 X-0.349S0
G1 X-0.379S100
G1 X-0.045Y0.1S0
G1 X0.324S100
G1 X0.449S0
G1 X0.271S100
G1 X0.542S0
G1 X0.334S100
G1 X2.227S0
G1 X0.247S100
G1 X0.866S0
G1 X0.239S100
G1 X0.332S0
G1 X0.247S100
G1 X1.048S0
G1 X0.51S100
G1 X0.84S0
G1 X0.748S100
G1 X0.094Y0.1S0
G1 X-0.33S100
G1 X-0.279S0
G1 X-0.329S100
G1 X-0.658S0
G1 X-0.346S100
G1 X-1.298S0
G1 X-0.247S100
G1 X-0.28S0
G1 X-0.238S100
G1 X-0.919S0
G1 X-0.247S100
G1 X-2.2S0
G1 X-0.298S100
G1 X-0.605S0
G1 X-0.271S100
G1 X-0.51S0
G1 X-0.293S100
G1 X-0.016Y0.1S0
G1 X0.276S100
G1 X0.543S0
G1 X0.271S100
G1 X0.641S0
G1 X0.279S100
G1 X1.689S0
G1 X0.027S100
G1 X0.467S0
G1 X0.247S100
G1 X0.972S0
G1 X0.237S100
G1 X0.228S0
G1 X0.247S100
G1 X1.422S0
G1 X0.277S100
G1 X0.546S0
G1 X0.28S100
G1 X0.49S0
G1 X0.281S100
G1 X0.037Y0.1S0
G1 X-0.267S100
G1 X-0.591S0
G1 X-0.266S100
G1 X-0.475S0
G1 X-0.26S100
G1 X-1.474S0
G1 X-0.247S100
G1 X-0.176S0
G1 X-0.236S100
G1 X-1.025S0
G1 X-0.247S100
G1 X-0.309S0
G1 X-0.185S100
G1 X-1.681S0
G1 X-0.272S100
G1 X-0.656S0
G1 X-0.271S100
G1 X-0.556S0
G1 X-0.272S100
G1 Y0.1S0
G1 X0.276S100
G1 X0.552S0
G1 X0.271S100
G1 X0.653S0
G1 X0.275S100
G1 X1.681S0
G1 X0.312S100
G1 X0.182S0
G1 X0.247S100
G1 X1.078S0
G1 X0.235S100
G1 X0.124S0
G1 X0.247S100
G1 X1.496S0
G1 X0.252S100
G1 X0.449S0
G1 X0.257S100
G1 X0.633S0
G1 X0.257S100
G1 X0.006Y0.1S0
G1 X-0.256S100
G1 X-0.652S0
G1 X-0.252S100
G1 X-0.436S0
G1 X-0.254S100
G1 X-0.675S0
G1 X-0.26S100
G1 X-0.565S0
G1 X-0.247S100
G1 X-0.071S0
G1 X-0.236S100
G1 X-1.13S0
G1 X-0.247S100
G1 X-0.074S0
G1 X-0.42S100
G1 X-1.687S0
G1 X-0.283S100
G1 X-0.639S0
G1 X-0.271S100
G1 X-0.531S0
G1 X-0.283S100
G1 X0.026Y0.1S0
G1 X0.303S100
G1 X0.485S0
G1 X0.271S100
G1 X0.594S0
G1 X0.308S100
G1 X1.838S0
G1 X0.61S100
G1 X1.183S0
G1 X0.235S100
G1 X0.019S0
G1 X0.247S100
G1 X0.584S0
G1 X0.262S100
G1 X0.64S0
G1 X0.258S100
G1 X0.453S0
G1 X0.26S100
G1 X0.623S0
G1 X0.263S100
G1 X-0.021Y0.1S0
G1 X-0.277S100
G1 X-0.555S0
G1 X-0.274S100
G1 X-0.492S0
G1 X-0.27S100
G1 X-0.566S0
G1 X-0.277S100
G1 X-0.611S0
G1 X-0.448S100
G1 X-1.236S0
G1 X-0.494S100
G1 X-1.984S0
G1 X-0.354S100
G1 X-0.518S0
G1 X-0.271S100
G1 X-0.407S0
G1 X-0.346S100
G1 X0.055Y0.1S0
G1 X0.443S100
G1 X0.255S0
G1 X0.271S100
G1 X0.383S0
G1 X0.447S100
G1 X2.124S0
G1 X0.396S100
G1 X1.289S0
G1 X0.395S100
G1 X0.648S0
G1 X0.302S100
G1 X0.444S0
G1 X0.297S100
G1 X0.556S0
G1 X0.305S100
G1 X0.431S0
G1 X0.306S100
G1 X-0.051Y0.1S0
G1 X-0.445S100
G1 X-0.048S0
G1 X-0.449S100
G1 X-0.66S0
G1 X-0.439S100
G1 X-0.049S0
G1 X-0.449S100
G1 X-0.699S0
G1 X-0.342S100
G1 X-1.342S0
G1 X-0.319S100
G1 X-2.263S0
G1 X-0.502S100
G1 X-0.266S0
G1 X-0.892S100
G1 X0.105Y0.1S0
G1 X0.787S100
G1 X0.279S0
G1 X0.399S100
G1 X2.426S0
G1 X0.246S100
G1 X1.394S0
G1 X0.29S100
G1 X0.773S0
G1 X0.788S100
G1 X0.808S0
G1 X0.795S100
G1 X-0.119Y0.1S0
G1 X-0.557S100
G1 X-1.054S0
G1 X-0.538S100
G1 X-0.896S0
G1 X-0.237S100
G1 X-1.447S0
G1 X-0.197S100
G1 X-2.612S0
G1 X-0.25S100
G1 X-0.291S0
G1 X-0.627S100
G1 X0.373Y0.1S0
G1 X0.254S100
G1 X0.395Y0.4S0
G1 X-0.94S100
G1 X-0.189Y0.1S0
G1 X1.312S100
G1 X0.117Y0.1S0
G1 X-1.55S100
G1 X-0.087Y0.1S0
G1 X0.532S100
G1 X0.139S0
G1 X0.271S100
G1 X0.233S0
G1 X0.547S100
G1 X0.053Y0.1S0
G1 X-0.396S100
G1 X-0.437S0
G1 X-0.271S100
G1 X-0.349S0
G1 X-0.379S100
G1 X-0.045Y0.1S0
G1 X0.324S100
G1 X0.449S0
G1 X0.271S100
G1 X0.542S0
G1 X0.334S100
G1 X0.027Y0.1S0
G1 X-0.298S100
G1 X-0.605S0
G1 X-0.271S100
G1 X-0.51S0
G1 X-0.293S100
G1 X-0.016Y0.1S0
G1 X0.276S100
G1 X0.543S0
G1 X0.271S100
G1 X0.641S0
G1 X0.279S100
G1 X0.008Y0.1S0
G1 X-0.272S100
G1 X-0.656S0
G1 X-0.271S100
G1 X-0.556S0
G1 X-0.272S100
G1 Y0.1S0
G1 X0.276S100
G1 X0.552S0
G1 X0.271S100
G1 X0.653S0
G1 X0.275S100
G1 X-0.006Y0.1S0
G1 X-0.283S100
G1 X-0.639S0
G1 X-0.271S100
G1 X-0.531S0
G1 X-0.283S100
G1 X0.026Y0.1S0
G1 X0.303S100
G1 X0.485S0
G1 X0.271S100
G1 X0.594S0
G1 X0.308S100
G1 X-0.03Y0.1S0
G1 X-0.354S100
G1 X-0.518S0
G1 X-0.271S100
G1 X-0.407S0
G1 X-0.346S100
G1 X0.055Y0.1S0
G1 X0.443S100
G1 X0.255S0
G1 X0.271S100
G1 X0.383S0
G1 X0.447S100
G1 X-0.062Y0.1S0
G1 X-0.502S100
G1 X-0.266S0
G1 X-0.892S100
G1 X0.105Y0.1S0
G1 X0.787S100
G1 X0.279S0
G1 X0.399S100
G1 X-0.137Y0.1S0
G1 X-0.25S100
G1 X-0.291S0
G1 X-0.627S100
G1 X0.373Y0.1S0
G1 X0.254S100
G1 X0.394Y0.4S0
G1 X-0.983S100
G1 X-0.183Y0.1S0
G1 X1.349S100
G1 X0.121Y0.1S0
G1 X-1.584S100
G1 X-0.09Y0.1S0
G1 X0.517S100
G1 X0.735S0
G1 X0.511S100
G1 X0.055Y0.1S0
G1 X-0.375S100
G1 X-1.12S0
G1 X-0.369S100
G1 X-0.046Y0.1S0
G1 X0.324S100
G1 X1.308S0
G1 X0.325S100
G1 X0.022Y0.1S0
G1 X-0.289S100
G1 X-1.419S0
G1 X-0.286S100
G1 X-0.014Y0.1S0
G1 X0.276S100
G1 X1.473S0
G1 X0.273S100
G1 Y0.1S0
G1 X-0.267S100
G1 X-1.482S0
G1 X-0.269S100
G1 X0.011Y0.1S0
G1 X0.276S100
G1 X1.449S0
G1 X0.272S100
G1 X-0.033Y0.1S0
G1 X-0.28S100
G1 X-1.364S0
G1 X-0.282S100
G1 X0.055Y0.1S0
G1 X0.306S100
G1 X1.21S0
G1 X0.305S100
G1 X-0.079Y0.1S0
G1 X-0.353S100
G1 X-0.949S0
G1 X-0.359S100
G1 X-0.889Y0.1S0
G1 X2.685S100
G1 X2.215S0
G1 X0.247S100
G1 X1.078S0
G1 X0.489S100
G1 X1.028S0
G1 X0.531S100
G1 X1.077S0
G1 X0.493S100
G1 X0.125Y0.1S0
G1 X-0.743S100
G1 X-0.812S0
G1 X-0.806S100
G1 X-0.759S0
G1 X-0.761S100
G1 X-0.94S0
G1 X-0.247S100
G1 X-2.215S0
G1 X-2.685S100
G1 Y0.1S0
G1 X2.685S100
G1 X2.215S0
G1 X0.247S100
G1 X0.859S0
G1 X0.929S100
G1 X0.588S0
G1 X0.973S100
G1 X0.655S0
G1 X0.883S100
G1 X0.062Y0.1S0
G1 X-0.303S100
G1 X-0.391S0
G1 X-0.3S100
G1 X-0.541S0
G1 X-0.321S100
G1 X-0.439S0
G1 X-0.336S100
G1 X-0.479S0
G1 X-0.302S100
G1 X-0.424S0
G1 X-0.315S100
G1 X-0.798S0
G1 X-0.247S100
G1 Y0.1S0
G1 X0.247S100
G1 X0.75S0
G1 X0.281S100
G1 X0.577S0
G1 X0.277S100
G1 X0.39S0
G1 X0.302S100
G1 X0.597S0
G1 X0.29S100
G1 X0.446S0
G1 X0.271S100
G1 X0.539S0
G1 X0.264S100
G1 X0.035Y0.1S0
G1 X-0.255S100
G1 X-0.627S0
G1 X-0.254S100
G1 X-0.386S0
G1 X-0.278S100
G1 X-0.694S0
G1 X-0.278S100
G1 X-0.334S0
G1 X-0.263S100
G1 X-0.666S0
G1 X-0.264S100
G1 X-0.72S0
G1 X-0.247S100
G1 Y0.1S0
G1 X0.247S100
G1 X0.693S0
G1 X0.26S100
G1 X0.732S0
G1 X0.255S100
G1 X0.291S0
G1 X0.272S100
G1 X0.758S0
G1 X0.262S100
G1 X0.335S0
G1 X0.248S100
G1 X0.689S0
G1 X0.249S100
G1 X0.016Y0.1S0
G1 X-0.247S100
G1 X-0.725S0
G1 X-0.25S100
G1 X-0.297S0
G1 X-0.268S100
G1 X-0.791S0
G1 X-0.125S100
G1 X-0.407S0
G1 X-0.255S100
G1 X-0.765S0
G1 X-0.256S100
G1 X-0.674S0
G1 X-0.247S100
G1 Y0.1S0
G1 X0.247S100
G1 X0.661S0
G1 X0.261S100
G1 X0.784S0
G1 X0.252S100
G1 X1.327S0
G1 X0.264S100
G1 X0.277S0
G1 X0.247S100
G1 X0.755S0
G1 X0.248S100
G1 X0.014Y0.1S0
G1 X-0.253S100
G1 X-0.773S0
G1 X-0.251S100
G1 X-0.259S0
G1 X-0.267S100
G1 X-1.327S0
G1 X-0.258S100
G1 X-0.778S0
G1 X-0.277S100
G1 X-0.647S0
G1 X-0.247S100
G1 Y0.1S0
G1 X0.247S100
G1 X0.642S0
G1 X0.294S100
G1 X0.755S0
G1 X0.263S100
G1 X1.322S0
G1 X0.271S100
G1 X0.258S0
G1 X0.251S100
G1 X0.789S0
G1 X0.249S100
G1 Y0.1S0
G1 X-0.246S100
G1 X-0.795S0
G1 X-0.252S100
G1 X-0.264S0
G1 X-0.273S100
G1 X-1.325S0
G1 X-0.265S100
G1 X-0.721S0
G1 X-0.315S100
G1 X-0.638S0
G1 X-0.247S100
G1 Y0.1S0
G1 X0.247S100
G1 X0.635S0
G1 X0.365S100
G1 X0.63S0
G1 X0.29S100
G1 X1.302S0
G1 X0.295S100
G1 X0.281S0
G1 X0.253S100
G1 X0.799S0
G1 X0.253S100
G1 Y0.1S0
G1 X-0.25S100
G1 X-0.805S0
G1 X-0.254S100
G1 X-0.309S0
G1 X-0.309S100
G1 X-0.625S0
G1 X-0.281S100
G1 X-0.387S0
G1 X-0.309S100
G1 X-0.515S0
G1 X-0.423S100
G1 X-0.636S0
G1 X-0.247S100
G1 Y0.1S0
G1 X0.247S100
G1 X0.639S0
G1 X0.242S100
G1 X0.02S0
G1 X0.284S100
G1 X0.267S0
G1 X0.384S100
G1 X0.448S0
G1 X0.367S100
G1 X0.427S0
G1 X0.366S100
G1 X0.354S0
G1 X0.253S100
G1 X0.8S0
G1 X0.253S100
G1 Y0.1S0
G1 X-0.256S100
G1 X-0.795S0
G1 X-0.25S100
G1 X-0.42S0
G1 X-1.085S100
G1 X-0.526S0
G1 X-0.809S100
G1 X-0.077S0
G1 X-0.243S100
G1 X-0.643S0
G1 X-0.247S100
G1 Y0.1S0
G1 X0.247S100
G1 X0.647S0
G1 X0.244S100
G1 X0.169S0
G1 X0.619S100
G1 X0.634S0
G1 X0.236S100
G1 X0.75
G1 X0.508S0
G1 X0.249S100
G1 X0.79S0
G1 X0.252S100
G1 X-0.007Y0.1S0
G1 X-0.253S100
G1 X-0.773S0
G1 X-0.254S100
G1 X-0.64S0
G1 X-0.472S100
G1 X-0.135S0
G1 X-0.237S100
G1 X-0.822S0
G1 X-0.277S100
G1 X-0.331S0
G1 X-0.237S100
G1 X-0.66S0
G1 X-0.247S100
G1 X-0.467S0
G1 X-0.027S100
G1 Y0.1S0
G1 X0.185S100
G1 X0.309S0
G1 X0.247S100
G1 X0.673S0
G1 X0.24S100
G1 X1.428S0
G1 X0.238S100
G1 X1.244S0
G1 X0.251S100
G1 X0.755S0
G1 X0.25S100
G1 X-0.012Y0.1S0
G1 X-0.251S100
G1 X-0.728S0
G1 X-0.248S100
G1 X-1.246S0
G1 X-0.239S100
G1 X-1.423S0
G1 X-0.246S100
G1 X-0.686S0
G1 X-0.247S100
G1 X-0.182S0
G1 X-0.312S100
G1 X-2.245S0
G1 X-0.9S100
G1 X-0.385Y0.1S0
G1 X1.66S100
G1 X1.87S0
G1 X0.42S100
G1 X0.074S0
G1 X0.247S100
G1 X0.711S0
G1 X0.244S100
G1 X0.722S0
G1 X0.17S100
G1 X0.522S0
G1 X0.24S100
G1 X1.247S0
G1 X0.252S100
G1 X0.689S0
G1 X0.25S100
G1 X-0.025Y0.1S0
G1 X-0.253S100
G1 X-0.635S0
G1 X-0.256S100
G1 X-1.254S0
G1 X-0.241S100
G1 X-0.47S0
G1 X-0.26S100
G1 X-0.657S0
G1 X-0.259S100
G1 X-0.737S0
G1 X-0.61S100
G1 X-1.76S0
G1 X-2.145S100
G1 X-0.199Y0.1S0
G1 X1.23S100
G1 X0.088S0
G1 X1.233S100
G1 X1.669S0
G1 X0.494S100
G1 X0.77S0
G1 X0.275S100
G1 X0.573S0
G1 X0.274S100
G1 X0.505S0
G1 X0.242S100
G1 X1.274S0
G1 X0.259S100
G1 X0.556S0
G1 X0.263S100
G1 X-0.039Y0.1S0
G1 X-0.296S100
G1 X-0.42S0
G1 X-0.287S100
G1 X-1.295S0
G1 X-0.242S100
G1 X-0.552S0
G1 X-0.31S100
G1 X-0.43S0
G1 X-0.303S100
G1 X-0.817S0
G1 X-0.396S100
G1 X-1.586S0
G1 X-0.716S100
G1 X-1.509S0
G1 X-0.676S100
G1 X-0.155Y0.1S0
G1 X0.523S100
G1 X2.132S0
G1 X0.549S100
G1 X1.515S0
G1 X0.319S100
G1 X0.872S0
G1 X0.44S100
G1 X0.05S0
G1 X0.452S100
G1 X0.612S0
G1 X1.033S100
G1 X0.548S0
G1 X0.415S100
G1 X0.049S0
G1 X0.428S100
G1 X-0.07Y0.1S0
G1 X-0.756S100
G1 X-0.614S0
G1 X-1.019S100
G1 X-0.696S0
G1 X-0.796S100
G1 X-0.948S0
G1 X-0.246S100
G1 X-1.44S0
G1 X-0.44S100
G1 X-2.624S0
G1 X-0.431S100
G1 X-0.011Y0.1S0
G1 X0.255S100
G1 X2.998S0
G1 X0.266S100
G1 X1.476S0
G1 X0.197S100
G1 X1.07S0
G1 X0.555S100
G1 X0.829S0
G1 X1.005S100
G1 X0.725S0
G1 X0.53S100
G1 X-6.387Y0.1S0
G1 X-0.082S100
G1 X-3.36S0
G1 X-0.077S100
G1 X0.785Y0.5S0
G1 X1.945S100
G1 Y0.1S0
G1 X-1.945S100
G1 Y0.1S0
G1 X1.945S100
G1 X-1.418Y0.1S0
G1 X-0.362S100
G1 X-0.082Y0.1S0
G1 X0.294S100
G1 X-0.075Y0.1S0
G1 X-0.277S100
G1 X-0.04Y0.1S0
G1 X0.274S100
G1 X-0.014Y0.1S0
G1 X-0.277S100
G1 X-0.012Y0.1S0
G1 X0.298S100
G1 X0.027Y0.1S0
G1 X-0.314S100
G1 X0.013Y0.1S0
G1 X0.392S100
G1 X1.573Y0.1S0
G1 X-1.923S100
G1 X0.065Y0.1S0
G1 X1.858S100
G1 Y0.1S0
G1 X-1.741S100
G1 X0.032Y0.1S0
G1 X1.709S100
G1 X-1.519Y0.1S0
G1 X-0.298S100
G1 X-0.075Y0.1S0
G1 X0.273S100
G1 X-0.053Y0.1S0
G1 X-0.266S100
G1 X-0.033Y0.1S0
G1 X0.274S100
G1 Y0.1S0
G1 X-0.286S100
G1 Y0.1S0
G1 X0.3S100
G1 X0.055Y0.1S0
G1 X-0.348S100
G1 X0.026Y0.1S0
G1 X0.482S100
G1 X1.468Y0.1S0
G1 X-1.903S100
G1 X0.081Y0.1S0
G1 X1.822S100
G1 Y0.1S0
G1 X-1.653S100
G1 X-0.292Y0.6S0
G1 X1.945S100
G1 Y0.1S0
G1 X-1.945S100
G1 Y0.1S0
G1 X1.945S100
G1 X2.215S0
G1 X0.247S100
G1 X1.027S0
G1 X0.556S100
G1 X1.07S0
G1 X0.489S100
G1 X1.029S0
G1 X0.541S100
G1 X0.135Y0.1S0
G1 X-0.807S100
G1 X-0.764S0
G1 X-0.761S100
G1 X-0.797S0
G1 X-0.826S100
G1 X-0.892S0
G1 X-0.247S100
G1 X-3.302S0
G1 X-0.632S100
G1 X-0.106Y0.1S0
G1 X0.317S100
G1 X3.723S0
G1 X0.247S100
G1 X0.805S0
G1 X1S100
G1 X0.629S0
G1 X0.929S100
G1 X0.594S0
G1 X0.979S100
G1 X0.065Y0.1S0
G1 X-0.33S100
G1 X-0.446S0
G1 X-0.327S100
G1 X-0.484S0
G1 X-0.302S100
G1 X-0.424S0
G1 X-0.315S100
G1 X-0.505S0
G1 X-0.322S100
G1 X-0.472S0
G1 X-0.332S100
G1 X-0.742S0
G1 X-0.247S100
G1 X-3.827S0
G1 X-0.287S100
G1 X-0.041Y0.1S0
G1 X0.274S100
G1 X3.881S0
G1 X0.247S100
G1 X0.702S0
G1 X0.288S100
G1 X0.631S0
G1 X0.288S100
G1 X0.416S0
G1 X0.281S100
G1 X0.577S0
G1 X0.277S100
G1 X0.394S0
G1 X0.296S100
G1 X0.598S0
G1 X0.297S100
G1 X0.033Y0.1S0
G1 X-0.28S100
G1 X-0.699S0
G1 X-0.273S100
G1 X-0.338S0
G1 X-0.263S100
G1 X-0.666S0
G1 X-0.264S100
G1 X-0.357S0
G1 X-0.267S100
G1 X-0.73S0
G1 X-0.268S100
G1 X-0.673S0
G1 X-0.247S100
G1 X-3.908S0
G1 X-0.278S100
G1 X-0.012Y0.1S0
G1 X0.284S100
G1 X3.914S0
G1 X0.247S100
G1 X0.652S0
G1 X0.261S100
G1 X0.783S0
G1 X0.262S100
G1 X0.31S0
G1 X0.26S100
G1 X0.732S0
G1 X0.255S100
G1 X0.293S0
G1 X0.267S100
G1 X0.754S0
G1 X0.272S100
G1 X0.008Y0.1S0
G1 X-0.267S100
G1 X-0.791S0
G1 X-0.199S100
G1 X-0.327S0
G1 X-0.255S100
G1 X-0.765S0
G1 X-0.256S100
G1 X-0.284S0
G1 X-0.256S100
G1 X-0.808S0
G1 X-0.256S100
G1 X-0.645S0
G1 X-0.247S100
G1 X-3.897S0
G1 X-0.301S100
G1 X0.011Y0.1S0
G1 X0.347S100
G1 X3.84S0
G1 X0.247S100
G1 X0.646S0
G1 X0.255S100
G1 X0.807S0
G1 X0.255S100
G1 X0.273S0
G1 X0.261S100
G1 X0.784S0
G1 X0.252S100
G1 X1.314S0
G1 X0.264S100
G1 X-0.01Y0.1S0
G1 X-0.267S100
G1 X-1.299S0
G1 X-0.258S100
G1 X-0.778S0
G1 X-0.277S100
G1 X-0.27S0
G1 X-0.258S100
G1 X-0.779S0
G1 X-0.259S100
G1 X-0.656S0
G1 X-0.247S100
G1 X-3.674S0
G1 X-0.485S100
G1 X0.043Y0.1S0
G1 X1.901S100
G1 X2.215S0
G1 X0.247S100
G1 X0.667S0
G1 X0.273S100
G1 X0.727S0
G1 X0.27S100
G1 X0.28S0
G1 X0.294S100
G1 X0.755S0
G1 X0.263S100
G1 X1.282S0
G1 X0.28S100
G1 X-0.035Y0.1S0
G1 X-0.295S100
G1 X-1.247S0
G1 X-0.265S100
G1 X-0.721S0
G1 X-0.315S100
G1 X-0.313S0
G1 X-0.284S100
G1 X-0.626S0
G1 X-0.285S100
G1 X-0.705S0
G1 X-0.247S100
G1 X-2.215S0
G1 X-1.812S100
G1 X0.163Y0.1S0
G1 X1.649S100
G1 X2.215S0
G1 X0.247S100
G1 X0.744S0
G1 X0.32S100
G1 X0.476S0
G1 X0.314S100
G1 X0.356S0
G1 X0.366S100
G1 X0.629S0
G1 X0.29S100
G1 X1.191S0
G1 X0.332S100
G1 X-0.08Y0.1S0
G1 X-0.65S100
G1 X-0.83S0
G1 X-0.309S100
G1 X-0.515S0
G1 X-0.423S100
G1 X-0.434S0
G1 X-0.952S100
G1 X-0.825S0
G1 X-0.247S100
G1 X-3.64S0
G1 X-0.344S100
G1 X-0.086Y0.1S0
G1 X0.277S100
G1 X3.793S0
G1 X0.247S100
G1 X0.959S0
G1 X0.687S100
G1 X0.568S0
G1 X0.242S100
G1 X0.02S0
G1 X0.284S100
G1 X0.267S0
G1 X0.384S100
G1 X0.886S0
G1 X0.507S100
G1 X0.013Y0.1S0
G1 X-0.51S100
G1 X-0.96S0
G1 X-0.809S100
G1 X-0.077S0
G1 X-0.243S100
G1 X-0.538S0
G1 X-0.748S100
G1 X-0.932S0
G1 X-0.247S100
G1 X-3.863S0
G1 X-0.27S100
G1 X-0.04Y0.1S0
G1 X0.272S100
G1 X3.901S0
G1 X0.247S100
G1 X0.836S0
G1 X0.329S100
G1 X0.279S0
G1 X0.33S100
G1 X0.448S0
G1 X0.244S100
G1 X0.169S0
G1 X0.619S100
G1 X1.303S0
G1 X0.346S100
G1 X0.055Y0.1S0
G1 X-0.277S100
G1 X-1.601S0
G1 X-0.277S100
G1 X-0.331S0
G1 X-0.237S100
G1 X-0.405S0
G1 X-0.281S100
G1 X-0.49S0
G1 X-0.28S100
G1 X-0.779S0
G1 X-0.247S100
G1 X-0.467S0
G1 X-0.027S100
G1 X-3.422S0
G1 X-0.276S100
G1 X-0.012Y0.1S0
G1 X0.295S100
G1 X3.415S0
G1 X0.185S100
G1 X0.309S0
G1 X0.247S100
G1 X0.743S0
G1 X0.266S100
G1 X0.591S0
G1 X0.267S100
G1 X0.381S0
G1 X0.24S100
G1 X2.245S0
G1 X0.26S100
G1 X0.014Y0.1S0
G1 X-0.252S100
G1 X-2.248S0
G1 X-0.246S100
G1 X-0.383S0
G1 X-0.257S100
G1 X-0.633S0
G1 X-0.257S100
G1 X-0.731S0
G1 X-0.247S100
G1 X-0.182S0
G1 X-0.312S100
G1 X-3.382S0
G1 X-0.321S100
G1 X0.019Y0.1S0
G1 X0.381S100
G1 X3.303S0
G1 X0.42S100
G1 X0.074S0
G1 X0.247S100
G1 X0.724S0
G1 X0.252S100
G1 X0.652S0
G1 X0.256S100
G1 X0.402S0
G1 X0.244S100
G1 X0.722S0
G1 X0.17S100
G1 X0.402S0
G1 X0.26S100
G1 X0.675S0
G1 X0.254S100
G1 X-0.01Y0.1S0
G1 X-0.258S100
G1 X-0.64S0
G1 X-0.262S100
G1 X-0.355S0
G1 X-0.26S100
G1 X-0.657S0
G1 X-0.259S100
G1 X-0.435S0
G1 X-0.263S100
G1 X-0.623S0
G1 X-0.26S100
G1 X-0.731S0
G1 X-0.61S100
G1 X-1.852S0
G1 X-1.928S100
G1 X0.062Y0.1S0
G1 X1.866S100
G1 X1.968S0
G1 X0.494S100
G1 X0.75S0
G1 X0.274S100
G1 X0.555S0
G1 X0.277S100
G1 X0.489S0
G1 X0.275S100
G1 X0.573S0
G1 X0.274S100
G1 X0.403S0
G1 X0.277S100
G1 X0.566S0
G1 X0.27S100
G1 X-0.033Y0.1S0
G1 X-0.297S100
G1 X-0.444S0
G1 X-0.302S100
G1 X-0.472S0
G1 X-0.31S100
G1 X-0.43S0
G1 X-0.303S100
G1 X-0.569S0
G1 X-0.306S100
G1 X-0.431S0
G1 X-0.305S100
G1 X-0.781S0
G1 X-0.396S100
G1 X-2.066S0
G1 X-1.756S100
G1 X0.406Y0.1S0
G1 X1.35S100
G1 X2.143S0
G1 X0.319S100
G1 X0.83S0
G1 X0.449S100
G1 X0.048S0
G1 X0.445S100
G1 X0.675S0
G1 X0.44S100
G1 X0.05S0
G1 X0.452S100
G1 X0.569S0
G1 X0.449S100
G1 X0.049S0
G1 X0.439S100
G1 X-0.075Y0.1S0
G1 X-0.788S100
G1 X-0.713S0
G1 X-0.796S100
G1 X-0.825S0
G1 X-0.795S100
G1 X-0.903S0
G1 X-0.246S100
G1 X0.049Y0.1S0
G1 X0.197S100
G1 X1.022S0
G1 X0.557S100
G1 X1.066S0
G1 X0.555S100
G1 X0.955S0
G1 X0.538S100
G1 X-7.11Y0.1S0
G1 X-0.111S100
G1 X-0.357Y0.1S0
G1 X0.468S100
G1 Y0.1S0
G1 X-0.824S100
G1 X-0.357Y0.1S0
G1 X0.947S100
G1 X-0.358Y0.1S0
G1 X-0.946S100
G1 X-0.356Y0.1S0
G1 X0.944S100
G1 X-0.357Y0.1S0
G1 X-0.944S100
G1 X-0.357Y0.1S0
G1 X0.943S100
G1 X-0.357Y0.1S0
G1 X-0.753S100
G1 Y0.1S0
G1 X0.395S100
G1 X-0.357Y0.1S0
G1 X-0.038S100
G1 X0.785Y0.3S0
G1 X1.945S100
G1 Y0.1S0
G1 X-1.945S100
G1 Y0.1S0
G1 X1.945S100
G1 X-1.087Y0.1S0
G1 X-0.632S100
G1 X-0.106Y0.1S0
G1 X0.317S100
G1 X-0.104Y0.1S0
G1 X-0.287S100
G1 X-0.041Y0.1S0
G1 X0.274S100
G1 X-0.027Y0.1S0
G1 X-0.278S100
G1 X-0.012Y0.1S0
G1 X0.284S100
G1 X0.017Y0.1S0
G1 X-0.301S100
G1 X0.011Y0.1S0
G1 X0.347S100
G1 X0.166Y0.1S0
G1 X-0.485S100
G1 X0.043Y0.1S0
G1 X1.901S100
G1 Y0.1S0
G1 X-1.812S100
G1 X0.163Y0.1S0
G1 X1.649S100
G1 X-1.425Y0.1S0
G1 X-0.344S100
G1 X-0.086Y0.1S0
G1 X0.277S100
G1 X-0.07Y0.1S0
G1 X-0.27S100
G1 X-0.04Y0.1S0
G1 X0.272S100
G1 X-0.015Y0.1S0
G1 X-0.276S100
G1 X-0.012Y0.1S0
G1 X0.295S100
G1 X0.033Y0.1S0
G1 X-0.321S100
G1 X0.019Y0.1S0
G1 X0.381S100
G1 X1.582Y0.1S0
G1 X-1.928S100
G1 X0.062Y0.1S0
G1 X1.866S100
G1 X7.163Y0.1S0
G1 X-0.531S100
G1 X-1.397S0
G1 X-0.254S100
G1 X-0.973S0
G1 X-0.493S100
G1 X-0.685S0
G1 X-1.329S100
G1 X-1.501S0
G1 X-1.756S100
G1 X0.406Y0.1S0
G1 X1.35S100
G1 X1.506S0
G1 X1.324S100
G1 X0.56S0
G1 X0.743S100
G1 X0.855S0
G1 X0.256S100
G1 X1.253S0
G1 X0.806S100
G1 X0.083Y0.1S0
G1 X-0.973S100
G1 X-1.16S0
G1 X-0.258S100
G1 X-0.796S0
G1 X-0.883S100
G1 X-0.486S0
G1 X-1.304S100
G1 X0.035Y0.1S0
G1 X0.283S100
G1 X1.423S0
G1 X0.3S100
G1 X0.391S0
G1 X0.303S100
G1 X0.741S0
G1 X0.259S100
G1 X1.094S0
G1 X0.336S100
G1 X0.439S0
G1 X0.321S100
G1 X0.05Y0.1S0
G1 X-0.29S100
G1 X-0.597S0
G1 X-0.302S100
G1 X-1.039S0
G1 X-0.257S100
G1 X-0.72S0
G1 X-0.264S100
G1 X-0.539S0
G1 X-0.271S100
G1 X-1.324S0
G1 X-0.298S100
G1 X0.054Y0.1S0
G1 X0.311S100
G1 X1.23S0
G1 X0.254S100
G1 X0.627S0
G1 X0.255S100
G1 X0.701S0
G1 X0.258S100
G1 X0.994S0
G1 X0.278S100
G1 X0.694S0
G1 X0.278S100
G1 X0.026Y0.1S0
G1 X-0.262S100
G1 X-0.758S0
G1 X-0.272S100
G1 X-0.961S0
G1 X-0.258S100
G1 X-0.693S0
G1 X-0.249S100
G1 X-0.689S0
G1 X-0.248S100
G1 X-1.124S0
G1 X-0.331S100
G1 X-4.445Y0.1S0
G1 X0.182S100
G1 X3.146S0
G1 X0.191S100
G1 X0.998S0
G1 X0.346S100
G1 X1.017S0
G1 X0.25S100
G1 X0.725S0
G1 X0.247S100
G1 X0.693S0
G1 X0.26S100
G1 X1.069S0
G1 X0.125S100
G1 X0.791S0
G1 X0.268S100
G1 X0.008Y0.1S0
G1 X-0.264S100
G1 X-1.973S0
G1 X-0.263S100
G1 X-0.698S0
G1 X-0.248S100
G1 X-0.755S0
G1 X-0.247S100
G1 X-0.918S0
G1 X-0.355S100
G1 X-1.076S0
G1 X-0.375S100
G1 X-2.779S0
G1 X-0.365S100
G1 X0.097Y0.1S0
G1 X0.476S100
G1 X2.34S0
G1 X0.505S100
G1 X1.263S0
G1 X0.355S100
G1 X0.819S0
G1 X0.252S100
G1 X0.772S0
G1 X0.253S100
G1 X0.708S0
G1 X0.266S100
G1 X1.948S0
G1 X0.267S100
G1 X-0.007Y0.1S0
G1 X-0.271S100
G1 X-1.911S0
G1 X-0.267S100
G1 X-0.729S0
G1 X-0.249S100
G1 X-0.789S0
G1 X-0.251S100
G1 X-0.726S0
G1 X-0.353S100
G1 X-1.499S0
G1 X-0.613S100
G1 X-1.813S0
G1 X-0.602S100
G1 X0.167Y0.1S0
G1 X0.872S100
G1 X0.959S0
G1 X0.871S100
G1 X1.747S0
G1 X0.347S100
G1 X0.639S0
G1 X0.252S100
G1 X0.795S0
G1 X0.25S100
G1 X0.75S0
G1 X0.269S100
G1 X1.872S0
G1 X0.273S100
G1 X-0.02Y0.1S0
G1 X-0.295S100
G1 X-1.803S0
G1 X-0.27S100
G1 X-0.771S0
G1 X-0.253S100
G1 X-0.799S0
G1 X-0.253S100
G1 X-0.561S0
G1 X-0.338S100
G1 X-2.037S0
G1 X-2.308S100
G1 X0.225Y0.1S0
G1 X1.871S100
G1 X2.331S0
G1 X0.329S100
G1 X0.484S0
G1 X0.254S100
G1 X0.805S0
G1 X0.254S100
G1 X0.801S0
G1 X0.272S100
G1 X0.815S0
G1 X0.281S100
G1 X0.625S0
G1 X0.309S100
G1 X-0.041Y0.1S0
G1 X-0.366S100
G1 X-0.427S0
G1 X-0.367S100
G1 X-0.792S0
G1 X-0.274S100
G1 X-0.839S0
G1 X-0.253S100
G1 X-0.8S0
G1 X-0.253S100
G1 X-0.43S0
G1 X-0.313S100
G1 X-2.715S0
G1 X-1.232S100
G1 X4.012Y0.1S0
G1 X0.299S100
G1 X0.384S0
G1 X0.25S100
G1 X0.795S0
G1 X0.253S100
G1 X0.877S0
G1 X0.275S100
G1 X0.77S0
G1 X1.085S100
G1 X-0.084Y0.1S0
G1 X-0.742S100
G1 X-0.244
G1 X-0.748S0
G1 X-0.277S100
G1 X-0.915S0
G1 X-0.252S100
G1 X-0.79S0
G1 X-0.249S100
G1 X-0.347S0
G1 X-0.289S100
G1 X0.042Y0.1S0
G1 X0.273S100
G1 X0.325S0
G1 X0.254S100
G1 X0.773S0
G1 X0.253S100
G1 X0.965S0
G1 X0.275S100
G1 X0.721S0
G1 X0.237S100
G1 X0.135S0
G1 X0.472S100
G1 X-0.592Y0.1S0
G1 X-0.238S100
G1 X-0.688S0
G1 X-0.277S100
G1 X-1.022S0
G1 X-0.25S100
G1 X-0.755S0
G1 X-0.251S100
G1 X-0.318S0
G1 X-0.264S100
G1 X-1.005Y0.1S0
G1 X0.257S100
G1 X0.763S0
G1 X0.257S100
G1 X0.327S0
G1 X0.248S100
G1 X0.728S0
G1 X0.251S100
G1 X1.079S0
G1 X0.279S100
G1 X0.655S0
G1 X0.239S100
G1 X0.015Y0.1S0
G1 X-0.24S100
G1 X-0.623S0
G1 X-0.28S100
G1 X-1.144S0
G1 X-0.25S100
G1 X-0.689S0
G1 X-0.252S100
G1 X-0.345S0
G1 X-0.258S100
G1 X-0.748S0
G1 X-0.258S100
G1 X0.015Y0.1S0
G1 X0.259S100
G1 X0.717S0
G1 X0.263S100
G1 X0.377S0
G1 X0.256S100
G1 X0.635S0
G1 X0.253S100
G1 X1.227S0
G1 X0.275S100
G1 X0.584S0
G1 X0.241S100
G1 X0.015Y0.1S0
G1 X-0.242S100
G1 X-0.538S0
G1 X-0.278S100
G1 X-1.315S0
G1 X-0.263S100
G1 X-0.556S0
G1 X-0.259S100
G1 X-0.435S0
G1 X-0.285S100
G1 X-0.625S0
G1 X-0.28S100
G1 X0.037Y0.1S0
G1 X0.308S100
G1 X0.487S0
G1 X0.321S100
G1 X0.508S0
G1 X0.287S100
G1 X0.42S0
G1 X0.296S100
G1 X1.412S0
G1 X0.28S100
G1 X0.493S0
G1 X0.242S100
G1 X0.805Y0.1S0
G1 X-1.033S100
G1 X-0.462S0
G1 X-1.303S100
G1 X-0.487S0
G1 X-0.428S100
G1 X-0.049S0
G1 X-0.415S100
G1 X-0.62S0
G1 X-0.487S100
G1 X-0.054S0
G1 X-0.469S100
G1 X0.077Y0.1S0
G1 X0.856S100
G1 X0.763S0
G1 X0.756S100
G1 X0.557S0
G1 X1.303S100
G1 X0.476S0
G1 X1.019S100
G1 Y0.1S0
G1 X-1.005S100
G1 X-0.49S0
G1 X-1.303S100
G1 X-0.672S0
G1 X-0.53S100
G1 X-1S0
G1 X-0.6S100
G1 X-0.395Y3.9S0
G1 X1.329S100
G1 X0.246S0
G1 X1.329S100
G1 X0.659S0
G1 X0.556S100
G1 X1.019S0
G1 X0.556S100
G1 X0.135Y0.1S0
G1 X-0.826S100
G1 X-0.749S0
G1 X-0.826S100
G1 X-0.524S0
G1 X-1.324S100
G1 X-0.251S0
G1 X-1.324S100
G1 X0.02Y0.1S0
G1 X1.304S100
G1 X0.271S0
G1 X1.304S100
G1 X0.437S0
G1 X1S100
G1 X0.575S0
G1 X1S100
G1 X0.063Y0.1S0
G1 X-0.322S100
G1 X-0.472S0
G1 X-0.332S100
G1 X-0.449S0
G1 X-0.322S100
G1 X-0.472S0
G1 X-0.332S100
G1 X-1.36S0
G1 X-0.283S100
G1 X-1.292S0
G1 X-0.283S100
G1 X0.039Y0.1S0
G1 X0.298S100
G1 X1.277S0
G1 X0.298S100
G1 X1.266S0
G1 X0.288S100
G1 X0.631S0
G1 X0.288S100
G1 X0.368S0
G1 X0.288S100
G1 X0.631S0
G1 X0.288S100
G1 X0.029Y0.1S0
G1 X-0.267S100
G1 X-0.73S0
G1 X-0.268S100
G1 X-0.31S0
G1 X-0.267S100
G1 X-0.73S0
G1 X-0.268S100
G1 X-1.17S0
G1 X-0.311S100
G1 X-1.264S0
G1 X-0.31S100
G1 X0.061Y0.1S0
G1 X0.331S100
G1 X1.244S0
G1 X0.331S100
G1 X1.068S0
G1 X0.261S100
G1 X0.783S0
G1 X0.262S100
G1 X0.269S0
G1 X0.261S100
G1 X0.783S0
G1 X0.262S100
G1 X0.007Y0.1S0
G1 X-0.256S100
G1 X-0.808S0
G1 X-0.256S100
G1 X-0.255S0
G1 X-0.256S100
G1 X-0.808S0
G1 X-0.256S100
G1 X-0.974S0
G1 X-0.346S100
G1 X-1.229S0
G1 X-0.346S100
G1 X0.078Y0.1S0
G1 X0.355S100
G1 X1.22S0
G1 X0.355S100
G1 X0.888S0
G1 X0.255S100
G1 X0.807S0
G1 X0.255S100
G1 X0.258S0
G1 X0.255S100
G1 X0.807S0
G1 X0.255S100
G1 X-0.011Y0.1S0
G1 X-0.258S100
G1 X-0.779S0
G1 X-0.259S100
G1 X-0.279S0
G1 X-0.258S100
G1 X-0.779S0
G1 X-0.259S100
G1 X-0.812S0
G1 X-0.355S100
G1 X-1.22S0
G1 X-0.355S100
G1 X0.087Y0.1S0
G1 X0.353S100
G1 X1.222S0
G1 X0.353S100
G1 X0.738S0
G1 X0.273S100
G1 X0.727S0
G1 X0.27S100
G1 X0.305S0
G1 X0.273S100
G1 X0.727S0
G1 X0.27S100
G1 X-0.037Y0.1S0
G1 X-0.284S100
G1 X-0.626S0
G1 X-0.285S100
G1 X-0.38S0
G1 X-0.284S100
G1 X-0.626S0
G1 X-0.285S100
G1 X-0.693S0
G1 X-0.347S100
G1 X-1.228S0
G1 X-0.347S100
G1 X0.084Y0.1S0
G1 X0.338S100
G1 X1.237S0
G1 X0.338S100
G1 X0.657S0
G1 X0.32S100
G1 X0.476S0
G1 X0.314S100
G1 X0.465S0
G1 X0.32S100
G1 X0.476S0
G1 X0.314S100
G1 X-0.077Y0.1S0
G1 X-0.952S100
G1 X-0.623S0
G1 X-0.952S100
G1 X-0.665S0
G1 X-0.329S100
G1 X-1.246S0
G1 X-0.329S100
G1 X0.074Y0.1S0
G1 X0.313S100
G1 X1.262S0
G1 X0.313S100
G1 X0.741S0
G1 X0.687S100
G1 X0.888S0
G1 X0.687S100
G1 X0.034Y0.1S0
G1 X-0.748S100
G1 X-0.827S0
G1 X-0.748S100
G1 X-0.663S0
G1 X-0.299S100
G1 X-1.276S0
G1 X-0.299S100
G1 X0.051Y0.1S0
G1 X0.289S100
G1 X1.286S0
G1 X0.289S100
G1 X0.526S0
G1 X0.329S100
G1 X0.279S0
G1 X0.33S100
G1 X0.637S0
G1 X0.329S100
G1 X0.279S0
G1 X0.33S100
G1 X0.056Y0.1S0
G1 X-0.281S100
G1 X-0.49S0
G1 X-0.28S100
G1 X-0.524S0
G1 X-0.281S100
G1 X-0.49S0
G1 X-0.28S100
G1 X-0.443S0
G1 X-0.273S100
G1 X-1.302S0
G1 X-0.273S100
G1 X0.028Y0.1S0
G1 X0.264S100
G1 X1.311S0
G1 X0.264S100
G1 X0.388S0
G1 X0.266S100
G1 X0.591S0
G1 X0.267S100
G1 X0.451S0
G1 X0.266S100
G1 X0.591S0
G1 X0.267S100
G1 X0.011Y0.1S0
G1 X-0.257S100
G1 X-0.633S0
G1 X-0.257S100
G1 X-0.428S0
G1 X-0.257S100
G1 X-0.633S0
G1 X-0.257S100
G1 X-0.368S0
G1 X-0.257S100
G1 X-0.763S0
G1 X-0.257S100
G1 X-0.298S0
G1 X-0.257S100
G1 X-0.763S0
G1 X-0.257S100
G1 X0.011Y0.1S0
G1 X0.258S100
G1 X0.748S0
G1 X0.258S100
G1 X0.311S0
G1 X0.258S100
G1 X0.748S0
G1 X0.258S100
G1 X0.363S0
G1 X0.252S100
G1 X0.652S0
G1 X0.256S100
G1 X0.415S0
G1 X0.252S100
G1 X0.652S0
G1 X0.256S100
G1 X-0.007Y0.1S0
G1 X-0.263S100
G1 X-0.623S0
G1 X-0.26S100
G1 X-0.429S0
G1 X-0.263S100
G1 X-0.623S0
G1 X-0.26S100
G1 X-0.38S0
G1 X-0.263S100
G1 X-0.717S0
G1 X-0.259S100
G1 X-0.336S0
G1 X-0.263S100
G1 X-0.717S0
G1 X-0.259S100
G1 X0.026Y0.1S0
G1 X0.28S100
G1 X0.625S0
G1 X0.285S100
G1 X0.385S0
G1 X0.28S100
G1 X0.625S0
G1 X0.285S100
G1 X0.422S0
G1 X0.274S100
G1 X0.555S0
G1 X0.277S100
G1 X0.469S0
G1 X0.274S100
G1 X0.555S0
G1 X0.277S100
G1 X-0.033Y0.1S0
G1 X-0.306S100
G1 X-0.431S0
G1 X-0.305S100
G1 X-0.533S0
G1 X-0.306S100
G1 X-0.431S0
G1 X-0.305S100
G1 X-0.49S0
G1 X-0.321S100
G1 X-0.487S0
G1 X-0.308S100
G1 X-0.459S0
G1 X-0.321S100
G1 X-0.487S0
G1 X-0.308S100
G1 X0.052Y0.1S0
G1 X0.469S100
G1 X0.054S0
G1 X0.487S100
G1 X0.565S0
G1 X0.469S100
G1 X0.054S0
G1 X0.487S100
G1 X0.593S0
G1 X0.449S100
G1 X0.048S0
G1 X0.445S100
G1 X0.633S0
G1 X0.449S100
G1 X0.048S0
G1 X0.445S100
G1 X-0.074Y0.1S0
G1 X-0.795S100
G1 X-0.78S0
G1 X-0.795S100
G1 X-0.743S0
G1 X-0.856S100
G1 X-0.719S0
G1 X-0.856S100
G1 X0.13Y0.1S0
G1 X0.6S100
G1 X0.975S0
G1 X0.6S100
G1 X0.988S0
G1 X0.557S100
G1 X1.018S0
G1 X0.557S100
G1 X-0.033Y3.9S0
G1 X-0.493S100
G1 X-1.082S0
G1 X-0.493S100
G1 X-1.077S0
G1 X-0.531S100
G1 X-0.652S0
G1 X-1.329S100
G1 Y0.1S0
G1 X1.329S100
G1 X0.517S0
G1 X0.806S100
G1 X0.812S0
G1 X0.743S100
G1 X0.832S0
G1 X0.743S100
G1 X0.066Y0.1S0
G1 X-0.883S100
G1 X-0.692S0
G1 X-0.883S100
G1 X-0.655S0
G1 X-0.973S100
G1 X-0.433S0
G1 X-1.304S100
G1 X0.035Y0.1S0
G1 X0.283S100
G1 X1.361S0
G1 X0.336S100
G1 X0.439S0
G1 X0.321S100
G1 X0.541S0
G1 X0.3S100
G1 X0.391S0
G1 X0.303S100
G1 X0.581S0
G1 X0.3S100
G1 X0.391S0
G1 X0.303S100
G1 X0.035Y0.1S0
G1 X-0.264S100
G1 X-0.539S0
G1 X-0.271S100
G1 X-0.501S0
G1 X-0.264S100
G1 X-0.539S0
G1 X-0.271S100
G1 X-0.446S0
G1 X-0.29S100
G1 X-0.597S0
G1 X-0.302S100
G1 X-1.264S0
G1 X-0.298S100
G1 X0.055Y0.1S0
G1 X0.31S100
G1 X1.169S0
G1 X0.278S100
G1 X0.694S0
G1 X0.278S100
G1 X0.386S0
G1 X0.254S100
G1 X0.627S0
G1 X0.255S100
G1 X0.439S0
G1 X0.254S100
G1 X0.627S0
G1 X0.255S100
G1 X0.025Y0.1S0
G1 X-0.249S100
G1 X-0.689S0
G1 X-0.248S100
G1 X-0.389S0
G1 X-0.249S100
G1 X-0.689S0
G1 X-0.248S100
G1 X-0.335S0
G1 X-0.262S100
G1 X-0.758S0
G1 X-0.272S100
G1 X-1.072S0
G1 X-0.331S100
G1 X0.072Y0.1S0
G1 X0.346S100
G1 X1.111S0
G1 X0.125S100
G1 X0.791S0
G1 X0.268S100
G1 X0.297S0
G1 X0.25S100
G1 X0.725S0
G1 X0.247S100
G1 X0.353S0
G1 X0.25S100
G1 X0.725S0
G1 X0.247S100
G1 X0.016Y0.1S0
G1 X-0.248S100
G1 X-0.755S0
G1 X-0.247S100
G1 X-0.325S0
G1 X-0.248S100
G1 X-0.755S0
G1 X-0.247S100
G1 X-0.277S0
G1 X-0.264S100
G1 X-1.952S0
G1 X-0.355S100
G1 X0.086Y0.1S0
G1 X0.355S100
G1 X1.868S0
G1 X0.266S100
G1 X0.26S0
G1 X0.252S100
G1 X0.772S0
G1 X0.253S100
G1 X0.298S0
G1 X0.251S100
G1 X0.773S0
G1 X0.253S100
G1 Y0.1S0
G1 X-0.245S100
G1 X-0.789S0
G1 X-0.251S100
G1 X-0.286S0
G1 X-0.248S100
G1 X-0.79S0
G1 X-0.251S100
G1 X-0.258S0
G1 X-0.272S100
G1 X-1.771S0
G1 X-0.353S100
G1 X0.089Y0.1S0
G1 X0.347S100
G1 X1.677S0
G1 X0.273S100
G1 X0.264S0
G1 X0.252S100
G1 X0.795S0
G1 X0.25S100
G1 X0.278S0
G1 X0.252S100
G1 X0.795S0
G1 X0.25S100
G1 Y0.1S0
G1 X-0.248S100
G1 X-0.799S0
G1 X-0.253S100
G1 X-0.27S0
G1 X-0.253S100
G1 X-0.799S0
G1 X-0.253S100
G1 X-0.281S0
G1 X-0.295S100
G1 X-1.56S0
G1 X-0.338S100
G1 X0.082Y0.1S0
G1 X0.329S100
G1 X0.535S0
G1 X0.281S100
G1 X0.625S0
G1 X0.309S100
G1 X0.309S0
G1 X0.254S100
G1 X0.805S0
G1 X0.254S100
G1 X0.262S0
G1 X0.254S100
G1 X0.805S0
G1 X0.254S100
G1 Y0.1S0
G1 X-0.256S100
G1 X-0.8S0
G1 X-0.253S100
G1 X-0.269S0
G1 X-0.253S100
G1 X-0.8S0
G1 X-0.253S100
G1 X-0.354S0
G1 X-0.366S100
G1 X-0.427S0
G1 X-0.367S100
G1 X-0.491S0
G1 X-0.313S100
G1 X0.065Y0.1S0
G1 X0.299S100
G1 X0.454S0
G1 X1.085S100
G1 X0.42S0
G1 X0.25S100
G1 X0.795S0
G1 X0.253S100
G1 X0.277S0
G1 X0.25S100
G1 X0.795S0
G1 X0.253S100
G1 Y0.1S0
G1 X-0.255S100
G1 X-0.79S0
G1 X-0.249S100
G1 X-0.284S0
G1 X-0.252S100
G1 X-0.79S0
G1 X-0.249S100
G1 X-0.508S0
G1 X-0.742S100
G1 X-0.244
G1 X-0.428S0
G1 X-0.289S100
G1 X0.042Y0.1S0
G1 X0.273S100
G1 X0.416S0
G1 X0.237S100
G1 X0.135S0
G1 X0.472S100
G1 X0.64S0
G1 X0.254S100
G1 X0.773S0
G1 X0.253S100
G1 X0.295S0
G1 X0.254S100
G1 X0.773S0
G1 X0.253S100
G1 X-0.012Y0.1S0
G1 X-0.25S100
G1 X-0.755S0
G1 X-0.251S100
G1 X-0.319S0
G1 X-0.25S100
G1 X-0.755S0
G1 X-0.251S100
G1 X-1.244S0
G1 X-0.238S100
G1 X-0.411S0
G1 X-0.264S100
G1 X-1.005Y0.1S0
G1 X0.257S100
G1 X0.763S0
G1 X0.257S100
G1 X0.417S0
G1 X0.239S100
G1 X1.246S0
G1 X0.248S100
G1 X0.728S0
G1 X0.251S100
G1 X0.348S0
G1 X0.248S100
G1 X0.728S0
G1 X0.251S100
G1 X-0.02Y0.1S0
G1 X-0.25S100
G1 X-0.689S0
G1 X-0.252S100
G1 X-0.384S0
G1 X-0.25S100
G1 X-0.689S0
G1 X-0.252S100
G1 X-1.247S0
G1 X-0.24S100
G1 X-0.433S0
G1 X-0.258S100
G1 X-0.748S0
G1 X-0.258S100
G1 X0.015Y0.1S0
G1 X0.259S100
G1 X0.717S0
G1 X0.263S100
G1 X0.457S0
G1 X0.241S100
G1 X1.254S0
G1 X0.256S100
G1 X0.635S0
G1 X0.253S100
G1 X0.431S0
G1 X0.256S100
G1 X0.635S0
G1 X0.253S100
G1 X-0.031Y0.1S0
G1 X-0.263S100
G1 X-0.556S0
G1 X-0.259S100
G1 X-0.497S0
G1 X-0.263S100
G1 X-0.556S0
G1 X-0.259S100
G1 X-1.274S0
G1 X-0.242S100
G1 X-0.494S0
G1 X-0.285S100
G1 X-0.625S0
G1 X-0.28S100
G1 X0.037Y0.1S0
G1 X0.308S100
G1 X0.487S0
G1 X0.321S100
G1 X0.546S0
G1 X0.242S100
G1 X1.295S0
G1 X0.287S100
G1 X0.42S0
G1 X0.296S100
G1 X0.572S0
G1 X0.287S100
G1 X0.42S0
G1 X0.296S100
G1 X-0.053Y0.1S0
G1 X-0.428S100
G1 X-0.049S0
G1 X-0.415S100
G1 X-0.683S0
G1 X-0.428S100
G1 X-0.049S0
G1 X-0.415S100
G1 X-0.548S0
G1 X-1.033S100
G1 X-0.614S0
G1 X-0.487S100
G1 X-0.054S0
G1 X-0.469S100
G1 X0.077Y0.1S0
G1 X0.856S100
G1 X0.705S0
G1 X1.019S100
G1 X0.614S0
G1 X0.756S100
G1 X0.819S0
G1 X0.756S100
G1 X-0.115Y0.1S0
G1 X-0.53S100
G1 X-1.045S0
G1 X-0.53S100
G1 X-0.725S0
G1 X-1.005S100
G1 X-0.845S0
G1 X-0.6S100
G1 X29.605Y4.3S0
G1 X0.284S100
G1 X1.876S0
G1 X0.527S100
G1 X0.353S0
G1 X0.275S100
G1 X0.597S0
G1 X0.572S100
G1 X0.928S0
G1 X0.572S100
G1 X1.047S0
G1 X0.556S100
G1 X1.005S0
G1 X0.572S100
G1 X0.745S0
G1 X0.301S100
G1 X2.802S0
G1 X0.264S100
G1 Y0.1S0
G1 X-0.264S100
G1 X-2.802S0
G1 X-0.301S100
G1 X-0.583S0
G1 X-0.891S100
G1 X-0.691S0
G1 X-0.875S100
G1 X-0.723S0
G1 X-0.891S100
G1 X-0.609S0
G1 X-0.891S100
G1 X-0.476S0
G1 X-0.269S100
G1 X-0.157S0
G1 X-0.828S100
G1 X-1.741S0
G1 X-0.284S100
G1 Y0.1S0
G1 X0.284S100
G1 X1.673S0
G1 X1.005S100
G1 X0.033S0
G1 X0.262S100
G1 X0.419S0
G1 X1.055S100
G1 X0.445S0
G1 X1.055S100
G1 X0.543S0
G1 X1.062S100
G1 X0.52S0
G1 X1.055S100
G1 X0.498S0
G1 X0.301S100
G1 X2.802S0
G1 X0.264S100
G1 Y0.1S0
G1 X-0.264S100
G1 X-2.802S0
G1 X-0.301S100
G1 X-0.443S0
G1 X-0.313S100
G1 X-0.51S0
G1 X-0.341S100
G1 X-0.404S0
G1 X-0.355S100
G1 X-0.473S0
G1 X-0.358S100
G1 X-0.426S0
G1 X-0.313S100
G1 X-0.51S0
G1 X-0.341S100
G1 X-0.336S0
G1 X-0.313S100
G1 X-0.51S0
G1 X-0.341S100
G1 X-0.376S0
G1 X-0.478S100
G1 X-0.526S0
G1 X-0.326S100
G1 X-1.632S0
G1 X-0.284S100
G1 Y0.1S0
G1 X0.284S100
G1 X1.61S0
G1 X0.292S100
G1 X0.678S0
G1 X0.377S100
G1 X0.347S0
G1 X0.294S100
G1 X0.663S0
G1 X0.279S100
G1 X0.264S0
G1 X0.294S100
G1 X0.663S0
G1 X0.279S100
G1 X0.339S0
G1 X0.314S100
G1 X0.649S0
G1 X0.315S100
G1 X0.327S0
G1 X0.294S100
G1 X0.663S0
G1 X0.279S100
G1 X3.508S0
G1 X0.264S100
G1 Y0.1S0
G1 X-0.264S100
G1 X-3.496S0
G1 X-0.269S100
G1 X-0.727S0
G1 X-0.276S100
G1 X-0.27S0
G1 X-0.297S100
G1 X-0.757S0
G1 X-0.294S100
G1 X-0.29S0
G1 X-0.269S100
G1 X-0.727S0
G1 X-0.276S100
G1 X-0.228S0
G1 X-0.269S100
G1 X-0.727S0
G1 X-0.276S100
G1 X-0.325S0
G1 X-0.319S100
G1 X-0.75S0
G1 X-0.283S100
G1 X-1.603S0
G1 X-0.284S100
G1 Y0.1S0
G1 X0.284S100
G1 X1.612S0
G1 X0.284S100
G1 X0.767S0
G1 X0.29S100
G1 X0.476S0
G1 X0.103S100
G1 X0.741S0
G1 X0.282S100
G1 X0.374S0
G1 X0.103S100
G1 X0.741S0
G1 X0.282S100
G1 X0.264S0
G1 X0.28S100
G1 X0.833S0
G1 X0.094S100
G1 X0.583S0
G1 X0.103S100
G1 X0.741S0
G1 X0.282S100
G1 X3.493S0
G1 X0.264S100
G1 Y0.1S0
G1 X-0.264S100
G1 X-3.504S0
G1 X-0.334S100
G1 X-2.313S0
G1 X-0.276S100
G1 X-0.257S0
G1 X-0.334S100
G1 X-1.166S0
G1 X-0.334S100
G1 X-1.257S0
G1 X-0.276S100
G1 X-0.732S0
G1 X-0.309S100
G1 X-1.636S0
G1 X-0.284S100
G1 Y0.1S0
G1 X0.284S100
G1 X1.677S0
G1 X0.418S100
G1 X0.588S0
G1 X0.27S100
G1 X1.019S0
G1 X0.539S100
G1 X0.961S0
G1 X0.539S100
G1 X0.281S0
G1 X0.272S100
G1 X2.088S0
G1 X0.539S100
G1 X3.537S0
G1 X0.264S100
G1 Y0.1S0
G1 X-0.264S100
G1 X-3.597S0
G1 X-0.763S100
G1 X-0.651S0
G1 X-1.43S100
G1 X-0.336S0
G1 X-0.763S100
G1 X-0.737S0
G1 X-0.763S100
G1 X-0.735S0
G1 X-0.268S100
G1 X-0.168S0
G1 X-0.772S100
G1 X-1.745S0
G1 X-0.284S100
G1 Y0.1S0
G1 X0.284S100
G1 X1.861S0
G1 X1.091S100
G1 X0.549S0
G1 X0.84S100
G1 X0.66S0
G1 X0.84S100
G1 X0.446S0
G1 X1.429S100
G1 X0.465S0
G1 X0.84S100
G1 X3.707S0
G1 X0.264S100
G1 Y0.1S0
G1 X-0.264S100
G1 X-3.93S0
G1 X-0.712S100
G1 X-0.375S0
G1 X-1.418S100
G1 X-0.675S0
G1 X-0.712S100
G1 X-0.788S0
G1 X-0.712S100
G1 X-0.454S0
G1 X-0.783S100
G1 X-1.383S0
G1 X-1.07S100
G1 Y0.1S0
G1 X1.337S100
G1 X1.564S0
G1 X0.335S100
G1 X0.401S0
G1 X0.483S100
G1 X1.017S0
G1 X0.483S100
G1 X0.966S0
G1 X0.279S100
G1 X0.851S0
G1 X0.272S100
G1 X0.329S0
G1 X0.483S100
G1 X4.212S0
G1 X0.264S100
G1 Y0.1S0
G1 X-0.264S100
G1 X-4.417S0
G1 X-0.308S100
G1 X-0.317S0
G1 X-0.27S100
G1 X-0.817S0
G1 X-0.279S100
G1 X-1.189S0
G1 X-0.308S100
G1 X-1.192S0
G1 X-0.308S100
G1 X-0.372S0
G1 X-0.264S100
G1 X-1.522S0
G1 X-1.449S100
G1 Y0.1S0
G1 X0.284S100
G1 X0.625S0
G1 X0.607S100
G1 X0.422S0
G1 X0.273S100
G1 X0.75S0
G1 X0.272S100
G1 X0.363S0
G1 X0.261S100
G1 X0.666S0
G1 X0.083S100
G1 X0.49S0
G1 X0.261S100
G1 X0.666S0
G1 X0.083S100
G1 X0.52S0
G1 X0.284S100
G1 X0.764S0
G1 X0.276S100
G1 X0.326S0
G1 X0.261S100
G1 X0.666S0
G1 X0.083S100
G1 X3.726S0
G1 X0.264S100
G1 Y0.1S0
G1 X-0.264S100
G1 X-3.562S0
G1 X-0.273S100
G1 X-0.638S0
G1 X-0.256S100
G1 X-0.369S0
G1 X-0.283S100
G1 X-0.667S0
G1 X-0.302S100
G1 X-0.392S0
G1 X-0.273S100
G1 X-0.638S0
G1 X-0.256S100
G1 X-0.333S0
G1 X-0.273S100
G1 X-0.638S0
G1 X-0.256S100
G1 X-0.376S0
G1 X-0.285S100
G1 X-0.701S0
G1 X-0.278S100
G1 X-0.399S0
G1 X-0.362S100
G1 X-0.918S0
G1 X-0.284S100
G1 Y0.1S0
G1 X0.284S100
G1 X0.989S0
G1 X0.327S100
G1 X0.396S0
G1 X0.31S100
G1 X0.577S0
G1 X0.326S100
G1 X0.416S0
G1 X0.281S100
G1 X0.533S0
G1 X0.31S100
G1 X0.376S0
G1 X0.281S100
G1 X0.533S0
G1 X0.31S100
G1 X0.459S0
G1 X0.331S100
G1 X0.515S0
G1 X0.316S100
G1 X0.435S0
G1 X0.281S100
G1 X0.533S0
G1 X0.31S100
G1 X0.48S0
G1 X0.301S100
G1 X2.802S0
G1 X0.264S100
G1 Y0.1S0
G1 X-0.264S100
G1 X-0.509S0
G1 X-0.018S100
G1 X-2.275S0
G1 X-0.301S100
G1 X-0.522S0
G1 X-0.488S100
G1 X-0.075S0
G1 X-0.478S100
G1 X-0.535S0
G1 X-0.472S100
G1 X-0.088S0
G1 X-0.484S100
G1 X-0.56S0
G1 X-0.488S100
G1 X-0.075S0
G1 X-0.478S100
G1 X-0.459S0
G1 X-0.488S100
G1 X-0.075S0
G1 X-0.478S100
G1 X-0.49S0
G1 X-0.56S100
G1 X-0.046S0
G1 X-0.527S100
G1 X-0.421S0
G1 X-0.302S100
G1 X-1.036S0
G1 X-0.284S100
G1 Y0.1S0
G1 X0.284S100
G1 X1.05S0
G1 X0.299S100
G1 X0.492S0
G1 X0.988S100
G1 X0.623S0
G1 X0.9S100
G1 X0.6S0
G1 X0.9S100
G1 X0.721S0
G1 X0.866S100
G1 X0.693S0
G1 X0.9S100
G1 X0.593S0
G1 X0.301S100
G1 X2.275S0
G1 X0.188S100
G1 X0.339S0
G1 X0.264S100
G1 Y0.1S0
G1 X-0.264S100
G1 X-0.201S0
G1 X-0.326S100
G1 X-2.275S0
G1 X-0.301S100
G1 X-0.724S0
G1 X-0.645S100
G1 X-0.948S0
G1 X-0.602S100
G1 X-0.985S0
G1 X-0.645S100
G1 X-0.855S0
G1 X-0.645S100
G1 X-0.874S0
G1 X-0.717S100
G1 X-0.63S0
G1 X-0.295S100
G1 X-1.06S0
G1 X-0.284S100
G1 Y0.1S0
G1 X0.284S100
G1 X1.05S0
G1 X0.296S100
G1 X10.855S0
G1 X0.442S100
G1 X0.085S0
G1 X0.264S100
G1 Y0.1S0
G1 X-0.66S100
G1 X-10.997S0
G1 X-0.313S100
G1 X-1.022S0
G1 X-0.284S100
G1 Y0.1S0
G1 X0.284S100
G1 X0.973S0
G1 X0.334S100
G1 X11.151S0
G1 X0.534S100
G1 Y0.1S0
G1 X-0.429S100
G1 X-11.293S0
G1 X-0.402S100
G1 X-0.868S0
G1 X-0.284S100
G1 Y0.1S0
G1 X1.503S100
G1 X11.428S0
G1 X0.345S100
G1 Y0.1S0
G1 X-0.268S100
G1 X-11.588S0
G1 X-1.42S100
G1 Y0.1S0
G1 X1.277S100
G1 X11.786S0
G1 X0.213S100
G1 X-0.921Y1.7S0
G1 X-0.444S100
G1 X-1.236S0
G1 X-0.444S100
G1 X-3.756S0
G1 X-0.444S100
G1 X-4.596S0
G1 X-0.467S100
G1 X-3.441S0
G1 X-0.495S100
G1 X-0.655S0
G1 X-0.334S100
G1 X-2.7Y0.1S0
G1 X0.284S100
G1 X0.474S0
G1 X0.264S100
G1 X0.737S0
G1 X0.263S100
G1 X0.539S0
G1 X0.478S100
G1 X0.466S0
G1 X0.845S100
G1 X0.605S0
G1 X0.264S100
G1 X1.131S0
G1 X0.307S100
G1 X0.824S0
G1 X0.797S100
G1 X0.178S0
G1 X0.269S100
G1 X0.367S0
G1 X0.264S100
G1 X0.475S0
G1 X0.301S100
G1 X2.397S0
G1 X0.752S100
G1 X0.752S0
G1 X0.3S100
G1 X1.121S0
G1 X0.264S100
G1 X1.011S0
G1 X0.751S100
G1 X0.928S0
G1 X0.752S100
G1 X1.518S0
G1 X0.264S100
G1 X0.661S0
G1 X0.263S100
G1 X0.658S0
G1 X0.262S100
G1 X0.412S0
G1 X0.264S100
G1 X0.661S0
G1 X0.263S100
G1 X0.658S0
G1 X0.262S100
G1 Y0.1S0
G1 X-0.262S100
G1 X-0.658S0
G1 X-0.263S100
G1 X-0.661S0
G1 X-0.264S100
G1 X-0.412S0
G1 X-0.262S100
G1 X-0.658S0
G1 X-0.263S100
G1 X-0.661S0
G1 X-0.264S100
G1 X-1.441S0
G1 X-0.914S100
G1 X-0.766S0
G1 X-0.914S100
G1 X-0.925S0
G1 X-0.264S100
G1 X-1.121S0
G1 X-0.3S100
G1 X-0.676S0
G1 X-0.914S100
G1 X-2.311S0
G1 X-0.301S100
G1 X-0.475S0
G1 X-0.264S100
G1 X-0.39S0
G1 X-0.263S100
G1 X-0.049S0
G1 X-0.985S100
G1 X-0.718S0
G1 X-0.367S100
G1 X-1.101S0
G1 X-0.264S100
G1 X-0.508S0
G1 X-1.039S100
G1 X-0.382S0
G1 X-0.512S100
G1 X-0.492S0
G1 X-0.263S100
G1 X-0.737S0
G1 X-0.264S100
G1 X-0.474S0
G1 X-0.284S100
G1 Y0.1S0
G1 X0.284S100
G1 X0.474S0
G1 X0.264S100
G1 X0.737S0
G1 X0.263S100
G1 X0.475S0
G1 X0.324S100
G1 X0.52S0
G1 X0.369S100
G1 X0.435S0
G1 X0.367S100
G1 X0.443S0
G1 X0.264S100
G1 X1.07S0
G1 X0.428S100
G1 X0.644S0
G1 X0.332S100
G1 X0.504S0
G1 X0.492S100
G1 X0.403S0
G1 X0.264S100
G1 X0.475S0
G1 X0.301S100
G1 X2.253S0
G1 X0.332S100
G1 X0.376S0
G1 X0.335S100
G1 X0.605S0
G1 X0.3S100
G1 X1.121S0
G1 X0.264S100
G1 X0.867S0
G1 X0.332S100
G1 X0.376S0
G1 X0.335S100
G1 X0.637S0
G1 X0.332S100
G1 X0.376S0
G1 X0.335S100
G1 X1.37S0
G1 X0.264S100
G1 X0.661S0
G1 X0.263S100
G1 X0.658S0
G1 X0.262S100
G1 X0.412S0
G1 X0.264S100
G1 X0.661S0
G1 X0.263S100
G1 X0.658S0
G1 X0.262S100
G1 Y0.1S0
G1 X-0.262S100
G1 X-0.658S0
G1 X-0.263S100
G1 X-0.661S0
G1 X-0.264S100
G1 X-0.412S0
G1 X-0.262S100
G1 X-0.658S0
G1 X-0.263S100
G1 X-0.661S0
G1 X-0.264S100
G1 X-1.331S0
G1 X-0.287S100
G1 X-0.55S0
G1 X-0.293S100
G1 X-0.55S0
G1 X-0.287S100
G1 X-0.55S0
G1 X-0.293S100
G1 X-0.819S0
G1 X-0.264S100
G1 X-1.987S0
G1 X-0.287S100
G1 X-0.55S0
G1 X-0.293S100
G1 X-2.981S0
G1 X-0.264S100
G1 X-0.408S0
G1 X-0.384S100
G1 X-0.669S0
G1 X-0.294S100
G1 X-0.589S0
G1 X-0.245S100
G1 X-0.244
G1 X-1.04S0
G1 X-0.264S100
G1 X-0.397S0
G1 X-0.32S100
G1 X-0.632S0
G1 X-0.317S100
G1 X-0.531S0
G1 X-0.268S100
G1 X-0.468S0
G1 X-0.263S100
G1 X-0.737S0
G1 X-0.264S100
G1 X-0.474S0
G1 X-0.284S100
G1 Y0.1S0
G1 X0.284S100
G1 X0.474S0
G1 X0.264S100
G1 X0.737S0
G1 X0.263S100
G1 X0.466S0
G1 X0.262S100
G1 X0.503S0
G1 X0.294S100
G1 X0.747S0
G1 X0.298S100
G1 X0.363S0
G1 X0.264S100
G1 X1.009S0
G1 X0.246S100
G1 X0.054S0
G1 X0.25S100
G1 X0.552S0
G1 X0.284S100
G1 X0.741S0
G1 X0.326S100
G1 X0.411S0
G1 X0.264S100
G1 X2.949S0
G1 X0.273S100
G1 X0.654S0
G1 X0.273S100
G1 X1.949S0
G1 X0.264S100
G1 X0.787S0
G1 X0.273S100
G1 X0.654S0
G1 X0.273S100
G1 X0.48S0
G1 X0.273S100
G1 X0.654S0
G1 X0.273S100
G1 X1.293S0
G1 X0.264S100
G1 X0.661S0
G1 X0.263S100
G1 X0.658S0
G1 X0.262S100
G1 X0.412S0
G1 X0.264S100
G1 X0.661S0
G1 X0.263S100
G1 X0.658S0
G1 X0.262S100
G1 Y0.1S0
G1 X-0.262S100
G1 X-0.658S0
G1 X-0.263S100
G1 X-0.661S0
G1 X-0.264S100
G1 X-0.412S0
G1 X-0.262S100
G1 X-0.658S0
G1 X-0.263S100
G1 X-0.661S0
G1 X-0.264S100
G1 X-1.264S0
G1 X-0.266S100
G1 X-0.726S0
G1 X-0.264S100
G1 X-0.424S0
G1 X-0.266S100
G1 X-0.726S0
G1 X-0.264S100
G1 X-0.76S0
G1 X-0.264S100
G1 X-1.92S0
G1 X-0.266S100
G1 X-0.726S0
G1 X-0.264S100
G1 X-2.922S0
G1 X-0.264S100
G1 X-0.413S0
G1 X-0.293S100
G1 X-0.767S0
G1 X-0.282S100
G1 X-0.529S0
G1 X-0.254S100
G1 X-0.104S0
G1 X-0.252S100
G1 X-0.979S0
G1 X-0.264S100
G1 X-0.442S0
G1 X-0.18S100
G1 X-0.825S0
G1 X-0.28S100
G1 X-0.479S0
G1 X-0.262S100
G1 X-0.465S0
G1 X-0.263S100
G1 X-0.737S0
G1 X-0.264S100
G1 X-0.474S0
G1 X-0.284S100
G1 Y0.1S0
G1 X0.284S100
G1 X0.474S0
G1 X0.264S100
G1 X0.737S0
G1 X0.263S100
G1 X0.465S0
G1 X0.262S100
G1 X0.46S0
G1 X0.277S100
G1 X1.469S0
G1 X0.264S100
G1 X0.948S0
G1 X0.256S100
G1 X0.159S0
G1 X0.256S100
G1 X0.52S0
G1 X0.304S100
G1 X0.741S0
G1 X0.276S100
G1 X0.413S0
G1 X0.264S100
G1 X2.898S0
G1 X0.268S100
G1 X0.766S0
G1 X0.264S100
G1 X1.902S0
G1 X0.264S100
G1 X0.736S0
G1 X0.268S100
G1 X0.766S0
G1 X0.264S100
G1 X0.382S0
G1 X0.268S100
G1 X0.766S0
G1 X0.264S100
G1 X1.246S0
G1 X0.264S100
G1 X0.661S0
G1 X0.263S100
G1 X0.658S0
G1 X0.262S100
G1 X0.412S0
G1 X0.264S100
G1 X0.661S0
G1 X0.263S100
G1 X0.658S0
G1 X0.262S100
G1 Y0.1S0
G1 X-0.262S100
G1 X-0.658S0
G1 X-0.263S100
G1 X-0.661S0
G1 X-0.264S100
G1 X-0.412S0
G1 X-0.262S100
G1 X-0.658S0
G1 X-0.263S100
G1 X-0.661S0
G1 X-0.264S100
G1 X-1.229S0
G1 X-0.263S100
G1 X-0.802S0
G1 X-0.263S100
G1 X-0.352S0
G1 X-0.263S100
G1 X-0.802S0
G1 X-0.263S100
G1 X-0.723S0
G1 X-0.264S100
G1 X-1.885S0
G1 X-0.263S100
G1 X-0.802S0
G1 X-0.263S100
G1 X-2.885S0
G1 X-0.264S100
G1 X-0.413S0
G1 X-0.271S100
G1 X-0.619S0
G1 X-0.393S100
G1 X-0.527S0
G1 X-0.258S100
G1 X-0.216S0
G1 X-0.258S100
G1 X-0.918S0
G1 X-0.264S100
G1 X-1.484S0
G1 X-0.272S100
G1 X-0.45S0
G1 X-0.262S100
G1 X-0.465S0
G1 X-0.263S100
G1 X-0.737S0
G1 X-0.264S100
G1 X-0.474S0
G1 X-0.284S100
G1 Y0.1S0
G1 X0.284S100
G1 X0.474S0
G1 X0.264S100
G1 X0.737S0
G1 X0.263S100
G1 X0.465S0
G1 X0.262S100
G1 X0.444S0
G1 X1.43S100
G1 X0.332S0
G1 X0.264S100
G1 X0.887S0
G1 X0.26S100
G1 X0.274S0
G1 X0.259S100
G1 X0.56S0
G1 X0.736S100
G1 X0.216S0
G1 X0.268S100
G1 X0.413S0
G1 X0.264S100
G1 X2.872S0
G1 X0.267S100
G1 X0.82S0
G1 X0.271S100
G1 X1.868S0
G1 X0.264S100
G1 X0.71S0
G1 X0.267S100
G1 X0.82S0
G1 X0.271S100
G1 X0.322S0
G1 X0.267S100
G1 X0.82S0
G1 X0.271S100
G1 X1.212S0
G1 X0.264S100
G1 X0.661S0
G1 X0.263S100
G1 X0.658S0
G1 X0.262S100
G1 X0.412S0
G1 X0.264S100
G1 X0.661S0
G1 X0.263S100
G1 X0.658S0
G1 X0.262S100
G1 Y0.1S0
G1 X-0.262S100
G1 X-0.658S0
G1 X-0.263S100
G1 X-0.661S0
G1 X-0.264S100
G1 X-0.412S0
G1 X-0.262S100
G1 X-0.658S0
G1 X-0.263S100
G1 X-0.661S0
G1 X-0.264S100
G1 X-1.207S0
G1 X-0.266S100
G1 X-0.839S0
G1 X-0.269S100
G1 X-0.306S0
G1 X-0.266S100
G1 X-0.839S0
G1 X-0.269S100
G1 X-0.699S0
G1 X-0.264S100
G1 X-1.863S0
G1 X-0.266S100
G1 X-0.839S0
G1 X-0.269S100
G1 X-2.861S0
G1 X-0.264S100
G1 X-0.414S0
G1 X-1.108S100
G1 X-0.641S0
G1 X-0.26S100
G1 X-0.331S0
G1 X-0.262S100
G1 X-0.857S0
G1 X-0.264S100
G1 X-0.332S0
G1 X-1.43S100
G1 X-0.444S0
G1 X-0.262S100
G1 X-0.465S0
G1 X-0.263S100
G1 X-0.737S0
G1 X-0.264S100
G1 X-0.474S0
G1 X-0.284S100
G1 Y0.1S0
G1 X0.284S100
G1 X0.474S0
G1 X0.266S100
G1 X0.735S0
G1 X0.263S100
G1 X0.465S0
G1 X0.262S100
G1 X0.449S0
G1 X1.42S100
G1 X0.337S0
G1 X0.268S100
G1 X0.823S0
G1 X0.263S100
G1 X0.389S0
G1 X0.262S100
G1 X0.865S0
G1 X0.853S100
G1 X0.414S0
G1 X0.264S100
G1 X2.857S0
G1 X0.269S100
G1 X0.847S0
G1 X0.266S100
G1 X1.859S0
G1 X0.264S100
G1 X0.695S0
G1 X0.269S100
G1 X0.847S0
G1 X0.266S100
G1 X0.298S0
G1 X0.269S100
G1 X0.847S0
G1 X0.266S100
G1 X1.203S0
G1 X0.268S100
G1 X0.657S0
G1 X0.263S100
G1 X0.658S0
G1 X0.262S100
G1 X0.412S0
G1 X0.268S100
G1 X0.657S0
G1 X0.263S100
G1 X0.658S0
G1 X0.262S100
G1 Y0.1S0
G1 X-0.262S100
G1 X-0.65S0
G1 X-0.271S100
G1 X-0.652S0
G1 X-0.273S100
G1 X-0.412S0
G1 X-0.262S100
G1 X-0.65S0
G1 X-0.271S100
G1 X-0.652S0
G1 X-0.273S100
G1 X-1.198S0
G1 X-0.269S100
G1 X-0.852S0
G1 X-0.269S100
G1 X-0.29S0
G1 X-0.269S100
G1 X-0.852S0
G1 X-0.269S100
G1 X-0.692S0
G1 X-0.264S100
G1 X-1.854S0
G1 X-0.269S100
G1 X-0.852S0
G1 X-0.269S100
G1 X-2.854S0
G1 X-0.264S100
G1 X-0.414S0
G1 X-0.374S100
G1 X-1.314S0
G1 X-0.263S100
G1 X-0.447S0
G1 X-0.265S100
G1 X-0.786S0
G1 X-0.274S100
G1 X-0.343S0
G1 X-0.272S100
G1 X-0.855S0
G1 X-0.28S100
G1 X-0.456S0
G1 X-0.262S100
G1 X-0.465S0
G1 X-0.264S100
G1 X-0.73S0
G1 X-0.27S100
G1 X-0.474S0
G1 X-0.284S100
G1 Y0.1S0
G1 X0.284S100
G1 X0.474S0
G1 X0.282S100
G1 X0.714S0
G1 X0.266S100
G1 X0.467S0
G1 X0.262S100
G1 X0.475S0
G1 X0.279S100
G1 X0.821S0
G1 X0.27S100
G1 X0.361S0
G1 X0.29S100
G1 X0.74S0
G1 X0.267S100
G1 X0.505S0
G1 X0.263S100
G1 X1.393S0
G1 X0.264S100
G1 X0.415S0
G1 X0.264S100
G1 X2.85S0
G1 X0.271S100
G1 X0.857S0
G1 X0.27S100
G1 X1.85S0
G1 X0.264S100
G1 X0.688S0
G1 X0.271S100
G1 X0.857S0
G1 X0.27S100
G1 X0.282S0
G1 X0.271S100
G1 X0.857S0
G1 X0.27S100
G1 X1.194S0
G1 X0.285S100
G1 X0.636S0
G1 X0.285S100
G1 X0.637S0
G1 X0.265S100
G1 X0.412S0
G1 X0.285S100
G1 X0.636S0
G1 X0.285S100
G1 X0.637S0
G1 X0.265S100
G1 Y0.1S0
G1 X-0.269S100
G1 X-0.619S0
G1 X-0.307S100
G1 X-0.609S0
G1 X-0.304S100
G1 X-0.415S0
G1 X-0.266S100
G1 X-0.619S0
G1 X-0.307S100
G1 X-0.609S0
G1 X-0.304S100
G1 X-1.195S0
G1 X-0.271S100
G1 X-0.854S0
G1 X-0.271S100
G1 X-0.284S0
G1 X-0.271S100
G1 X-0.854S0
G1 X-0.271S100
G1 X-0.689S0
G1 X-0.264S100
G1 X-1.851S0
G1 X-0.271S100
G1 X-0.854S0
G1 X-0.271S100
G1 X-2.851S0
G1 X-0.264S100
G1 X-0.417S0
G1 X-0.271S100
G1 X-0.755S0
G1 X-0.272S100
G1 X-0.327S0
G1 X-0.264S100
G1 X-0.563S0
G1 X-0.269S100
G1 X-0.692S0
G1 X-0.307S100
G1 X-0.379S0
G1 X-0.275S100
G1 X-0.776S0
G1 X-0.281S100
G1 X-0.495S0
G1 X-0.262S100
G1 X-0.469S0
G1 X-0.275S100
G1 X-0.682S0
G1 X-0.303S100
G1 X-0.474S0
G1 X-0.284S100
G1 Y0.1S0
G1 X0.284S100
G1 X0.474S0
G1 X0.341S100
G1 X0.621S0
G1 X0.289S100
G1 X0.478S0
G1 X0.262S100
G1 X0.531S0
G1 X0.299S100
G1 X0.679S0
G1 X0.283S100
G1 X0.414S0
G1 X0.345S100
G1 X0.624S0
G1 X0.27S100
G1 X0.621S0
G1 X0.266S100
G1 X0.321S0
G1 X0.278S100
G1 X0.71S0
G1 X0.28S100
G1 X0.422S0
G1 X0.264S100
G1 X2.853S0
G1 X0.272S100
G1 X0.849S0
G1 X0.269S100
G1 X1.855S0
G1 X0.264S100
G1 X0.691S0
G1 X0.272S100
G1 X0.849S0
G1 X0.269S100
G1 X0.29S0
G1 X0.272S100
G1 X0.849S0
G1 X0.269S100
G1 X1.199S0
G1 X0.344S100
G1 X0.549S0
G1 X0.373S100
G1 X0.556S0
G1 X0.277S100
G1 X0.421S0
G1 X0.344S100
G1 X0.549S0
G1 X0.373S100
G1 X0.556S0
G1 X0.277S100
G1 X-0.018Y0.1S0
G1 X-0.308S100
G1 X-0.436S0
G1 X-0.484S100
G1 X-0.436S0
G1 X-0.417S100
G1 X-0.439S0
G1 X-0.308S100
G1 X-0.436S0
G1 X-0.484S100
G1 X-0.437S0
G1 X-0.416S100
G1 X-1.202S0
G1 X-0.269S100
G1 X-0.843S0
G1 X-0.271S100
G1 X-0.297S0
G1 X-0.269S100
G1 X-0.843S0
G1 X-0.271S100
G1 X-0.695S0
G1 X-0.264S100
G1 X-1.858S0
G1 X-0.269S100
G1 X-0.843S0
G1 X-0.271S100
G1 X-2.081S0
G1 X-0.301S100
G1 X-0.475S0
G1 X-0.264S100
G1 X-0.438S0
G1 X-0.314S100
G1 X-0.6S0
G1 X-0.308S100
G1 X-0.321S0
G1 X-0.267S100
G1 X-0.678S0
G1 X-0.273S100
G1 X-0.176S0
G1 X-0.05S100
G1 X-0.28S0
G1 X-0.432S100
G1 X-0.456S0
G1 X-0.312S100
G1 X-0.539S0
G1 X-0.325S100
G1 X-0.574S0
G1 X-0.262S100
G1 X-0.5S0
G1 X-0.327S100
G1 X-0.475S0
G1 X-0.427S100
G1 X-0.474S0
G1 X-0.284S100
G1 Y0.1S0
G1 X0.284S100
G1 X0.474S0
G1 X0.238S100
G1 X0.021S0
G1 X0.404S100
G1 X0.033S0
G1 X0.498S100
G1 X0.341S0
G1 X0.721S100
G1 X0.368S0
G1 X0.428S100
G1 X0.219S0
G1 X0.411S100
G1 X0.515S0
G1 X0.238S100
G1 X0.025S0
G1 X0.528S100
G1 X0.117S0
G1 X0.274S100
G1 X0.736S0
G1 X0.268S100
G1 X0.338S0
G1 X0.434S100
G1 X0.223S0
G1 X0.488S100
G1 X0.468S0
G1 X0.264S100
G1 X0.475S0
G1 X0.301S100
G1 X2.089S0
G1 X0.271S100
G1 X0.828S0
G1 X0.271S100
G1 X1.863S0
G1 X0.264S100
G1 X0.703S0
G1 X0.271S100
G1 X0.828S0
G1 X0.271S100
G1 X0.31S0
G1 X0.271S100
G1 X0.828S0
G1 X0.271S100
G1 X1.207S0
G1 X0.236S100
G1 X0.019S0
G1 X0.377S100
G1 X0.031S0
G1 X0.462S100
G1 X0.057S0
G1 X0.374S100
G1 X0.032S0
G1 X0.463S100
G1 X0.469S0
G1 X0.236S100
G1 X0.019S0
G1 X0.377S100
G1 X0.031S0
G1 X0.462S100
G1 X0.057S0
G1 X0.374S100
G1 X0.032S0
G1 X0.463S100
G1 X-0.05Y0.1S0
G1 X-0.751S100
G1 X-0.172S0
G1 X-0.757S100
G1 X-0.085S0
G1 X-0.236S100
G1 X-0.519S0
G1 X-0.751S100
G1 X-0.172S0
G1 X-0.757S100
G1 X-0.085S0
G1 X-0.236S100
G1 X-1.22S0
G1 X-0.268S100
G1 X-0.808S0
G1 X-0.271S100
G1 X-0.333S0
G1 X-0.268S100
G1 X-0.808S0
G1 X-0.271S100
G1 X-0.713S0
G1 X-0.264S100
G1 X-0.357S0
G1 X-0.17S100
G1 X-1.349S0
G1 X-0.267S100
G1 X-0.809S0
G1 X-0.271S100
G1 X-2.099S0
G1 X-0.301S100
G1 X-0.475S0
G1 X-0.264S100
G1 X-0.525S0
G1 X-1.011S100
G1 X-0.384S0
G1 X-0.27S100
G1 X-0.794S0
G1 X-0.275S100
G1 X-0.057S0
G1 X-0.507S100
G1 X-0.076S0
G1 X-0.238S100
G1 X-0.599S0
G1 X-0.888S100
G1 X-0.454S0
G1 X-0.721S100
G1 X-0.399S0
G1 X-0.809S100
G1 X-0.089S0
G1 X-0.238S100
G1 X-0.474S0
G1 X-0.284S100
G1 Y0.1S0
G1 X0.284S100
G1 X0.474S0
G1 X0.238S100
G1 X0.199S0
G1 X0.59S100
G1 X0.508S0
G1 X0.721S100
G1 X0.58S0
G1 X0.639S100
G1 X0.722S0
G1 X0.238S100
G1 X0.149S0
G1 X0.428S100
G1 X0.032S0
G1 X0.278S100
G1 X0.851S0
G1 X0.271S100
G1 X0.489S0
G1 X0.758S100
G1 X0.643S0
G1 X0.264S100
G1 X0.475S0
G1 X0.301S100
G1 X2.113S0
G1 X0.269S100
G1 X0.785S0
G1 X0.266S100
G1 X1.362S0
G1 X0.311S100
G1 X0.216S0
G1 X0.264S100
G1 X0.727S0
G1 X0.269S100
G1 X0.785S0
G1 X0.266S100
G1 X0.359S0
G1 X0.27S100
G1 X0.784S0
G1 X0.267S100
G1 X1.233S0
G1 X0.236S100
G1 X0.193S0
G1 X0.56S100
G1 X0.367S0
G1 X0.556S100
G1 X0.608S0
G1 X0.236S100
G1 X0.193S0
G1 X0.56S100
G1 X0.367S0
G1 X0.556S100
G1 X-5.684Y0.1S0
G1 X-0.268S100
G1 X-0.743S0
G1 X-0.271S100
G1 X-0.398S0
G1 X-0.268S100
G1 X-0.743S0
G1 X-0.271S100
G1 X-0.746S0
G1 X-0.264S100
G1 X-0.097S0
G1 X-0.43S100
G1 X-1.381S0
G1 X-0.268S100
G1 X-0.743S0
G1 X-0.271S100
G1 X-2.908S0
G1 X-0.264S100
G1 X-6.343S0
G1 X-0.262S100
G1 X-2.203S0
G1 X-0.284S100
G1 Y0.1S0
G1 X0.284S100
G1 X2.203S0
G1 X0.262S100
G1 X6.343S0
G1 X0.264S100
G1 X2.931S0
G1 X0.273S100
G1 X0.692S0
G1 X0.268S100
G1 X1.52S0
G1 X0.414S100
G1 X0.264
G1 X0.769S0
G1 X0.273S100
G1 X0.692S0
G1 X0.268S100
G1 X0.447S0
G1 X0.273S100
G1 X0.692S0
G1 X0.268S100
G1 X-0.031Y0.1S0
G1 X-0.277S100
G1 X-0.612S0
G1 X-0.275S100
G1 X-0.516S0
G1 X-0.277S100
G1 X-0.612S0
G1 X-0.275S100
G1 X-0.807S0
G1 X-0.547S100
G1 X-1.682S0
G1 X-0.277S100
G1 X-0.612S0
G1 X-0.275S100
G1 X-2.969S0
G1 X-0.264S100
G1 X-6.343S0
G1 X-0.262S100
G1 X-2.203S0
G1 X-0.284S100
G1 Y0.1S0
G1 X0.284S100
G1 X2.203S0
G1 X0.262S100
G1 X6.343S0
G1 X0.264S100
G1 X3.007S0
G1 X0.298S100
G1 X0.484S0
G1 X0.303S100
G1 X1.828S0
G1 X0.442S100
G1 X0.845S0
G1 X0.298S100
G1 X0.484S0
G1 X0.303S100
G1 X0.595S0
G1 X0.298S100
G1 X0.484S0
G1 X0.303S100
G1 X-0.053Y0.1S0
G1 X-0.387S100
G1 X-0.215S0
G1 X-0.375S100
G1 X-0.703S0
G1 X-0.387S100
G1 X-0.215S0
G1 X-0.375S100
G1 X-0.9S0
G1 X-0.355S100
G1 X-1.968S0
G1 X-0.387S100
G1 X-0.215S0
G1 X-0.375S100
G1 X-3.062S0
G1 X-0.264S100
G1 X-6.343S0
G1 X-0.262S100
G1 X-2.203S0
G1 X-0.284S100
G1 Y0.1S0
G1 X0.284S100
G1 X2.3S0
G1 X0.165S100
G1 X6.343S0
G1 X0.264S100
G1 X3.133S0
G1 X0.84S100
G1 X2.112S0
G1 X0.277S100
G1 X0.971S0
G1 X0.84S100
G1 X0.84S0
G1 X0.84S100
G1 X-0.111Y0.1S0
G1 X-0.628S100
G1 X-1.052S0
G1 X-0.628S100
G1 X-1.072S0
G1 X-0.22S100
G1 X-2.28S0
G1 X-0.628S100
G1 X-3.234S0
G1 X-0.264S100
G1 X-6.343S0
G1 X-0.032S100
G1 X-2.433S0
G1 X-0.284S100
G1 X40.774Y-73.699S0
G1 Y0.247S100
G1 Y1.09S0
G1 Y0.428S100
G1 Y1.147S0
G1 Y0.428S100
G1 Y0.839S0
G1 Y0.282S100
G1 Y0.813S0
G1 Y0.428S100
G1 X-0.1Y0.138S0
G1 Y-0.712S100
G1 Y-0.667S0
G1 Y-0.282S100
G1 Y-0.702S0
G1 Y-0.711S100
G1 Y-0.864S0
G1 Y-0.711S100
G1 Y-0.944S0
G1 Y-0.247S100
G1 X-0.1S0
G1 Y0.247S100
G1 Y0.865S0
G1 Y0.861S100
G1 Y0.714S0
G1 Y0.861S100
G1 Y0.631S0
G1 Y0.282S100
G1 Y0.589S0
G1 Y0.86S100
G1 X-0.1Y0.067S0
G1 Y-0.313S100
G1 Y-0.359S0
G1 Y-0.309S100
G1 Y-0.535S0
G1 Y-0.282S100
G1 Y-0.565S0
G1 Y-0.313S100
G1 Y-0.358S0
G1 Y-0.31S100
G1 Y-0.594S0
G1 Y-0.313S100
G1 Y-0.358S0
G1 Y-0.31S100
G1 Y-0.811S0
G1 Y-0.247S100
G1 X-0.1S0
G1 Y0.247S100
G1 Y0.766S0
G1 Y0.274S100
G1 Y0.52S0
G1 Y0.268S100
G1 Y0.513S0
G1 Y0.274S100
G1 Y0.52S0
G1 Y0.268S100
G1 Y1.301S0
G1 Y0.274S100
G1 Y0.519S0
G1 Y0.268S100
G1 X-0.1Y0.036S0
G1 Y-0.256S100
G1 Y-0.615S0
G1 Y-0.256S100
G1 Y-1.236S0
G1 Y-0.255S100
G1 Y-0.616S0
G1 Y-0.255S100
G1 Y-0.449S0
G1 Y-0.255S100
G1 Y-0.616S0
G1 Y-0.255S100
G1 Y-0.737S0
G1 Y-0.247S100
G1 X-0.1S0
G1 Y0.247S100
G1 Y0.711S0
G1 Y0.248S100
G1 Y0.682S0
G1 Y0.25S100
G1 Y0.395S0
G1 Y0.248S100
G1 Y0.682S0
G1 Y0.25S100
G1 Y1.183S0
G1 Y0.248S100
G1 Y0.682S0
G1 Y0.249S100
G1 X-0.1Y0.016S0
G1 Y-0.246S100
G1 Y-0.72S0
G1 Y-0.251S100
G1 Y-1.145S0
G1 Y-0.247S100
G1 Y-0.72S0
G1 Y-0.25S100
G1 Y-0.358S0
G1 Y-0.247S100
G1 Y-0.72S0
G1 Y-0.25S100
G1 Y-0.69S0
G1 Y-0.247S100
G1 X-0.1S0
G1 Y0.247S100
G1 Y0.677S0
G1 Y0.247S100
G1 Y0.752S0
G1 Y0.247S100
G1 Y0.329S0
G1 Y0.247S100
G1 Y0.752S0
G1 Y0.247S100
G1 Y1.117S0
G1 Y0.247S100
G1 Y0.752S0
G1 Y0.247S100
G1 X-0.1Y0.015S0
G1 Y-0.254S100
G1 Y-0.769S0
G1 Y-0.251S100
G1 Y-1.088S0
G1 Y-0.254S100
G1 Y-0.769S0
G1 Y-0.251S100
G1 Y-0.301S0
G1 Y-0.254S100
G1 Y-0.77S0
G1 Y-0.25S100
G1 Y-0.665S0
G1 Y-0.247S100
G1 X-0.1S0
G1 Y0.247S100
G1 Y0.655S0
G1 Y0.252S100
G1 Y0.787S0
G1 Y0.249S100
G1 Y0.287S0
G1 Y0.252S100
G1 Y0.787S0
G1 Y0.249S100
G1 Y1.075S0
G1 Y0.251S100
G1 Y0.787S0
G1 Y0.249S100
G1 X-0.1S0
G1 Y-0.245S100
G1 Y-0.794S0
G1 Y-0.252S100
G1 Y-1.067S0
G1 Y-0.25S100
G1 Y-0.794S0
G1 Y-0.251S100
G1 Y-0.28S0
G1 Y-0.25S100
G1 Y-0.794S0
G1 Y-0.251S100
G1 Y-0.652S0
G1 Y-0.247S100
G1 X-0.1S0
G1 Y0.247S100
G1 Y0.648S0
G1 Y0.253S100
G1 Y0.799S0
G1 Y0.252S100
G1 Y0.271S0
G1 Y0.253S100
G1 Y0.799S0
G1 Y0.252S100
G1 Y1.059S0
G1 Y0.252S100
G1 Y0.799S0
G1 Y0.252S100
G1 X-0.1S0
G1 Y-0.249S100
G1 Y-0.804S0
G1 Y-0.254S100
G1 Y-1.051S0
G1 Y-0.254S100
G1 Y-0.804S0
G1 Y-0.253S100
G1 Y-0.264S0
G1 Y-0.254S100
G1 Y-0.804S0
G1 Y-0.253S100
G1 Y-0.645S0
G1 Y-0.247S100
G1 X-0.1S0
G1 Y0.247S100
G1 Y0.647S0
G1 Y0.253S100
G1 Y0.801S0
G1 Y0.253S100
G1 Y0.268S0
G1 Y0.253S100
G1 Y0.801S0
G1 Y0.253S100
G1 Y1.056S0
G1 Y0.252S100
G1 Y0.801S0
G1 Y0.254S100
G1 X-0.1S0
G1 Y-0.256S100
G1 Y-0.796S0
G1 Y-0.251S100
G1 Y-1.063S0
G1 Y-0.253S100
G1 Y-0.795S0
G1 Y-0.252S100
G1 Y-0.275S0
G1 Y-0.253S100
G1 Y-0.795S0
G1 Y-0.252S100
G1 Y-0.651S0
G1 Y-0.247S100
G1 X-0.1S0
G1 Y0.247S100
G1 Y0.656S0
G1 Y0.249S100
G1 Y0.791S0
G1 Y0.252S100
G1 Y0.283S0
G1 Y0.249S100
G1 Y0.791S0
G1 Y0.252S100
G1 Y1.07S0
G1 Y0.25S100
G1 Y0.79S0
G1 Y0.252S100
G1 X-0.1S0
G1 Y-0.259S100
G1 Y-0.776S0
G1 Y-0.252S100
G1 Y-1.08S0
G1 Y-0.254S100
G1 Y-0.776S0
G1 Y-0.253S100
G1 Y-0.292S0
G1 Y-0.254S100
G1 Y-0.776S0
G1 Y-0.253S100
G1 Y-0.66S0
G1 Y-0.247S100
G1 X-0.1Y-0.495S0
G1 Y0.163S100
G1 Y0.332S0
G1 Y0.247S100
G1 Y0.67S0
G1 Y0.252S100
G1 Y0.758S0
G1 Y0.25S100
G1 Y0.315S0
G1 Y0.252S100
G1 Y0.758S0
G1 Y0.25S100
G1 Y1.103S0
G1 Y0.252S100
G1 Y0.757S0
G1 Y0.251S100
G1 X-0.1Y-0.012S0
G1 Y-0.25S100
G1 Y-0.734S0
G1 Y-0.248S100
G1 Y-1.131S0
G1 Y-0.25S100
G1 Y-0.734S0
G1 Y-0.247S100
G1 Y-0.344S0
G1 Y-0.25S100
G1 Y-0.734S0
G1 Y-0.247S100
G1 Y-0.687S0
G1 Y-0.247S100
G1 Y-0.2S0
G1 Y-0.295S100
G1 X-0.1S0
G1 Y0.406S100
G1 Y0.089S0
G1 Y0.247S100
G1 Y0.703S0
G1 Y0.251S100
G1 Y0.696S0
G1 Y0.25S100
G1 Y0.378S0
G1 Y0.251S100
G1 Y0.696S0
G1 Y0.25S100
G1 Y1.165S0
G1 Y0.251S100
G1 Y0.696S0
G1 Y0.251S100
G1 X-0.1Y-0.025S0
G1 Y-0.251S100
G1 Y-0.647S0
G1 Y-0.256S100
G1 Y-1.208S0
G1 Y-0.252S100
G1 Y-0.646S0
G1 Y-0.256S100
G1 Y-0.421S0
G1 Y-0.252S100
G1 Y-0.646S0
G1 Y-0.256S100
G1 Y-0.722S0
G1 Y-0.632S100
G1 X-0.1Y0.121S0
G1 Y0.511S100
G1 Y0.757S0
G1 Y0.258S100
G1 Y0.572S0
G1 Y0.26S100
G1 Y0.485S0
G1 Y0.258S100
G1 Y0.572S0
G1 Y0.26S100
G1 Y1.273S0
G1 Y0.258S100
G1 Y0.572S0
G1 Y0.259S100
G1 X-0.1Y-0.039S0
G1 Y-0.285S100
G1 Y-0.449S0
G1 Y-0.281S100
G1 Y-1.347S0
G1 Y-0.286S100
G1 Y-0.449S0
G1 Y-0.28S100
G1 Y-0.56S0
G1 Y-0.286S100
G1 Y-0.449S0
G1 Y-0.28S100
G1 Y-0.793S0
G1 Y-0.412S100
G1 X-0.1Y0.081S0
G1 Y0.331S100
G1 Y0.846S0
G1 Y0.355S100
G1 Y0.191S0
G1 Y0.366S100
G1 Y0.663S0
G1 Y0.355S100
G1 Y0.191S0
G1 Y0.366S100
G1 Y1.45S0
G1 Y0.356S100
G1 Y0.19S0
G1 Y0.367S100
G1 X-0.1Y-0.063S0
G1 Y-0.783S100
G1 Y-1.579S0
G1 Y-0.784S100
G1 Y-0.792S0
G1 Y-0.783S100
G1 Y-0.912S0
G1 Y-0.258S100
G1 X-0.1Y0.053S0
G1 Y0.205S100
G1 Y1.008S0
G1 Y0.582S100
G1 Y0.993S0
G1 Y0.582S100
G1 Y1.781S0
G1 Y0.582S100
G1 X-3.9Y-0.073S0
G1 Y-0.428S100
G1 Y-0.813S0
G1 Y-0.282S100
G1 Y-0.839S0
G1 Y-0.428S100
G1 Y-1.194S0
G1 Y-0.447S100
G1 X-0.1Y-0.136S0
G1 Y0.733S100
G1 Y0.898S0
G1 Y0.711S100
G1 Y0.702S0
G1 Y0.282S100
G1 Y0.667S0
G1 Y0.712S100
G1 X-0.1Y0.07S0
G1 Y-0.86S100
G1 Y-0.589S0
G1 Y-0.282S100
G1 Y-0.631S0
G1 Y-0.861S100
G1 Y-0.739S0
G1 Y-0.892S100
G1 X-0.1Y-0.051S0
G1 Y0.306S100
G1 Y0.396S0
G1 Y0.315S100
G1 Y0.611S0
G1 Y0.31S100
G1 Y0.358S0
G1 Y0.313S100
G1 Y0.565S0
G1 Y0.282S100
G1 Y0.535S0
G1 Y0.309S100
G1 Y0.359S0
G1 Y0.313S100
G1 X-0.1Y0.035S0
G1 Y-0.268S100
G1 Y-0.519S0
G1 Y-0.274S100
G1 Y-1.301S0
G1 Y-0.268S100
G1 Y-0.52S0
G1 Y-0.274S100
G1 Y-0.525S0
G1 Y-0.27S100
G1 Y-0.554S0
G1 Y-0.269S100
G1 X-0.1Y-0.024S0
G1 Y0.253S100
G1 Y0.649S0
G1 Y0.254S100
G1 Y0.457S0
G1 Y0.255S100
G1 Y0.616S0
G1 Y0.255S100
G1 Y1.236S0
G1 Y0.256S100
G1 Y0.615S0
G1 Y0.256S100
G1 X-0.1Y0.027S0
G1 Y-0.249S100
G1 Y-0.682S0
G1 Y-0.248S100
G1 Y-1.183S0
G1 Y-0.25S100
G1 Y-0.682S0
G1 Y-0.248S100
G1 Y-0.397S0
G1 Y-0.251S100
G1 Y-0.709S0
G1 Y-0.245S100
G1 X-0.1Y0.979S0
G1 Y0.249S100
G1 Y0.353S0
G1 Y0.25S100
G1 Y0.72S0
G1 Y0.247S100
G1 Y1.145S0
G1 Y0.251S100
